; generated by Slic3r 1.1.7 on 2014-12-08 at 13:30:14

; perimeters extrusion width = 0.50mm
; infill extrusion width = 0.52mm
; solid infill extrusion width = 0.52mm
; top infill extrusion width = 0.52mm

G21 ; set units to millimeters
M107
M104 S205 ; set temperature
G28 ; home all axes
G1 Z5 F5000 ; lift nozzle

M109 S205 ; wait for temperature to be reached
G90 ; use absolute coordinates
G92 E0
M82 ; use absolute distances for extrusion
G1 F1800.000 E-1.00000
G92 E0
G1 Z0.500 F7800.000
G1 X85.645 Y84.209 F7800.000
G1 E1.00000 F1800.000
G1 X86.953 Y82.965 E1.11398 F1080.000
G1 X87.470 Y82.572 E1.15500
G1 X88.560 Y81.896 E1.23598
G1 X89.104 Y81.624 E1.27440
G1 X90.270 Y81.170 E1.35343
G1 X101.094 Y78.058 E2.06456
G1 X101.585 Y77.943 E2.09641
G1 X104.340 Y77.864 E2.27048
G1 X104.753 Y77.936 E2.29695
G1 X107.377 Y78.981 E2.47528 F1080.000
G1 X112.299 Y82.257 E2.84863
G1 X113.249 Y83.021 E2.92560
G1 X114.117 Y83.882 E3.00283
G1 X114.742 Y84.617 E3.06376
G1 X119.090 Y90.267 E3.51391
G1 X119.659 Y91.096 E3.57740
G1 X120.460 Y92.657 E3.68821
G1 X120.791 Y93.575 E3.74980
G1 X121.164 Y95.210 E3.85570
G1 X121.269 Y96.237 E3.92092
G1 X121.284 Y97.485 E3.99971
G1 X120.329 Y108.055 E4.66988
G1 X120.127 Y109.404 E4.75604
G1 X120.031 Y109.826 E4.78337
G1 X119.700 Y110.937 E4.85654
G1 X119.554 Y111.312 E4.88194
G1 X118.992 Y112.482 E4.96392
G1 X118.058 Y113.855 E5.06878
G1 X117.528 Y114.472 E5.12013
G1 X113.125 Y119.298 E5.53267
G1 X111.755 Y120.446 E5.64555
G1 X111.087 Y120.872 E5.69557
G1 X109.401 Y121.649 E5.81280
G1 X108.631 Y121.885 E5.86362
G1 X107.037 Y122.173 E5.96589
G1 X105.608 Y122.237 E6.05624
G1 X93.275 Y121.891 E6.83531
G1 X92.929 Y121.838 E6.85744
G1 X91.760 Y121.572 E6.93309
G1 X91.422 Y121.464 E6.95555
G1 X90.369 Y121.048 E7.02702
G1 X90.031 Y120.882 E7.05080
G1 X89.164 Y120.395 E7.11361
G1 X88.152 Y119.686 E7.19162
G1 X87.284 Y118.953 E7.26335
G1 X86.671 Y118.369 E7.31685
G1 X81.425 Y113.134 E7.78480
G1 X80.657 Y112.200 E7.86113
G1 X80.510 Y111.989 E7.87737
G1 X80.080 Y111.303 E7.92850
G1 X79.617 Y110.395 E7.99289
G1 X79.241 Y109.443 E8.05749
G1 X78.941 Y108.383 E8.12707
G1 X78.745 Y107.189 E8.20348
G1 X78.696 Y106.150 E8.26914
G1 X78.998 Y94.681 E8.99363
G1 X79.023 Y94.524 E9.00366
G1 X79.381 Y92.931 E9.10676
G1 X79.432 Y92.783 E9.11667
G1 X80.036 Y91.303 E9.21758
G1 X80.949 Y89.803 E9.32848
G1 X81.508 Y89.091 E9.38564
G1 X85.597 Y84.267 E9.78495
G1 F1800.000 E8.78495
G92 E0
G1 X104.344 Y102.928 F7800.000
G1 E1.00000 F1800.000
G1 X106.128 Y103.837 E1.12643 F540.000
G1 X106.711 Y103.985 E1.16443
G1 X107.634 Y104.164 E1.22377
G1 X108.088 Y104.295 E1.25362
G1 X108.582 Y104.472 E1.28673
G1 X109.081 Y104.683 E1.32096
G1 X109.552 Y104.914 E1.35408
G1 X109.962 Y105.146 E1.38386
G1 X110.275 Y105.354 E1.40755
G1 X110.492 Y105.533 E1.42530
G1 X110.792 Y105.829 E1.45195
G1 X111.010 Y106.077 E1.47280
G1 X111.124 Y106.237 E1.48523
G1 X111.194 Y106.392 E1.49594
G1 X111.223 Y106.705 E1.51580
G1 X111.208 Y107.031 E1.53637
G1 X111.154 Y107.475 E1.56461
G1 X111.089 Y107.756 E1.58286
G1 X111.026 Y107.918 E1.59382
G1 X110.946 Y108.050 E1.60358
G1 X110.790 Y108.235 E1.61887
G1 X110.489 Y108.508 E1.64453
G1 X110.006 Y108.873 E1.68276
G1 X109.206 Y109.412 E1.74364
G1 X108.676 Y109.852 E1.78712
G1 X108.149 Y110.450 E1.83746
G1 X107.682 Y111.100 E1.88805
G1 X106.985 Y112.256 E1.97326
G1 X106.555 Y112.876 E2.02094
G1 X106.418 Y112.964 E2.03120
G1 X106.204 Y113.029 E2.04533
G1 X105.859 Y113.050 E2.06715
G1 X105.393 Y112.985 E2.09687
G1 X104.838 Y112.805 E2.13367
G1 X104.239 Y112.500 E2.17612
G1 X103.634 Y112.072 E2.22296
G1 X103.034 Y111.504 E2.27510
G1 X102.775 Y111.160 E2.30228
G1 X102.578 Y110.730 E2.33214
G1 X102.488 Y110.428 E2.35205
G1 X102.406 Y110.037 E2.37731
G1 X102.334 Y109.549 E2.40846
G1 X102.168 Y107.649 E2.52889
G1 X102.058 Y106.656 E2.59195
G1 X101.870 Y105.601 E2.65964
G1 X98.719 Y100.914 E3.01625
G1 X97.334 Y106.070 E3.35335
G1 X97.230 Y106.690 E3.39304
G1 X97.025 Y108.242 E3.49189
G1 X96.832 Y109.505 E3.57263
G1 X96.591 Y110.515 E3.63819
G1 X96.310 Y111.310 E3.69143
G1 X96.012 Y111.891 E3.73266
G1 X95.724 Y112.278 E3.76311
G1 X95.461 Y112.515 E3.78546
G1 X95.199 Y112.662 E3.80441
G1 X94.831 Y112.772 E3.82868
G1 X94.501 Y112.793 E3.84955
G1 X94.267 Y112.737 E3.86476
G1 X94.097 Y112.654 E3.87669
G1 X93.856 Y112.495 E3.89493
G1 X93.540 Y112.238 E3.92066
G1 X93.160 Y111.877 E3.95378
G1 X92.753 Y111.438 E3.99161
G1 X92.318 Y110.919 E4.03430
G1 X91.939 Y110.423 E4.07377
G1 X91.409 Y109.606 E4.13526
G1 X91.088 Y109.156 E4.17015
G1 X90.705 Y108.712 E4.20714
G1 X90.268 Y108.299 E4.24515
G1 X89.788 Y107.919 E4.28380
G1 X89.260 Y107.551 E4.32445
G1 X88.084 Y106.810 E4.41222
G1 X87.943 Y106.523 E4.43237
G1 X87.880 Y106.326 E4.44545
G1 X87.977 Y106.049 E4.46399
G1 X88.238 Y105.503 E4.50220
G1 X88.563 Y105.009 E4.53959
G1 X89.068 Y104.842 E4.57317
G1 X89.907 Y104.627 E4.62785
G1 X91.554 Y104.274 E4.73423
G1 X92.995 Y104.025 E4.82653
G1 X94.910 Y103.744 E4.94878
G1 X95.371 Y103.649 E4.97848
G1 X95.899 Y103.491 E5.01327
G1 X96.671 Y103.070 E5.06879
G1 X97.366 Y102.124 E5.14293
G1 X97.509 Y101.104 E5.20792
G1 X97.323 Y100.074 E5.27402
G1 X96.583 Y99.128 E5.34984
G1 X95.713 Y98.702 E5.41106
G1 X95.062 Y98.577 E5.45290
G1 X94.547 Y98.552 E5.48548
G1 X94.061 Y98.566 E5.51619
G1 X92.388 Y98.705 E5.62213
G1 X91.262 Y98.722 E5.69327
G1 X90.254 Y98.651 E5.75706
G1 X89.851 Y98.590 E5.78281
G1 X89.460 Y98.492 E5.80829
G1 X89.329 Y98.423 E5.81761
G1 X89.149 Y98.281 E5.83213
G1 X88.915 Y98.034 E5.85357
G1 X88.671 Y97.707 E5.87936
G1 X88.450 Y97.328 E5.90704
G1 X88.271 Y96.928 E5.93472
G1 X88.150 Y96.542 E5.96025
G1 X88.092 Y96.217 E5.98114
G1 X88.089 Y95.958 E5.99747
G1 X88.128 Y95.719 E6.01275
G1 X88.208 Y95.486 E6.02834
G1 X88.323 Y95.271 E6.04372
G1 X88.461 Y95.093 E6.05791
G1 X88.604 Y94.963 E6.07018
G1 X88.739 Y94.879 E6.08016
G1 X88.972 Y94.793 E6.09587
G1 X90.914 Y94.297 E6.22243
G1 X91.705 Y91.788 E6.38853
G1 X91.927 Y91.206 E6.42786
G1 X92.160 Y90.766 E6.45933
G1 X92.408 Y90.417 E6.48637
G1 X92.646 Y90.166 E6.50822
G1 X92.846 Y90.014 E6.52407
G1 X93.006 Y89.935 E6.53534
G1 X93.228 Y89.989 E6.54975
G1 X93.654 Y90.163 E6.57883
G1 X94.114 Y90.415 E6.61194
G1 X94.353 Y91.019 E6.65294
G1 X94.523 Y91.526 E6.68674
G1 X94.880 Y92.764 E6.76811
G1 X95.203 Y94.009 E6.84930
G1 X95.383 Y94.558 E6.88578
G1 X95.799 Y95.606 E6.95699
G1 X96.026 Y96.091 E6.99080
G1 X96.281 Y96.561 E7.02455
G1 X96.719 Y97.198 E7.07338
G1 X99.358 Y99.068 E7.27763
G1 X100.157 Y97.412 E7.39375
G1 X102.252 Y97.372 E7.52604
G1 X103.147 Y95.979 E7.63062
G1 X103.378 Y95.330 E7.67410
G1 X103.635 Y94.302 E7.74102
G1 X103.969 Y93.308 E7.80726
G1 X104.409 Y92.272 E7.87831
G1 X104.837 Y91.460 E7.93627
G1 X104.995 Y91.221 E7.95436
G1 X105.452 Y90.652 E8.00047
G1 X105.898 Y90.195 E8.04076
G1 X106.300 Y89.864 E8.07368
G1 X106.760 Y89.576 E8.10792
G1 X107.076 Y89.814 E8.13287
G1 X107.273 Y89.999 E8.14996
G1 X107.500 Y90.259 E8.17179
G1 X107.790 Y90.654 E8.20269
G1 X108.157 Y91.220 E8.24531
G1 X108.614 Y91.982 E8.30143
G1 X109.221 Y93.041 E8.37849
G1 X109.591 Y93.588 E8.42018
G1 X110.077 Y94.168 E8.46795
G1 X110.609 Y94.712 E8.51605
G1 X111.060 Y95.104 E8.55375
G1 X111.665 Y95.667 E8.60594
G1 X111.926 Y96.048 E8.63507
G1 X112.062 Y96.426 E8.66045
G1 X112.118 Y96.968 E8.69487
G1 X112.091 Y97.313 E8.71674
G1 X112.012 Y97.639 E8.73791
G1 X111.890 Y97.926 E8.75757
G1 X111.718 Y98.194 E8.77767
G1 X111.483 Y98.455 E8.79986
G1 X111.167 Y98.714 E8.82564
G1 X110.755 Y98.965 E8.85610
G1 X110.189 Y99.219 E8.89527
G1 X109.708 Y99.391 E8.92757
G1 X109.556 Y99.426 E8.93741
G1 X109.296 Y99.427 E8.95382
G1 X107.927 Y99.312 E9.04055
G1 X107.404 Y99.286 E9.07360
G1 X106.912 Y99.287 E9.10472
G1 X104.957 Y99.515 E9.22901
G1 X104.357 Y102.854 E9.44322
G1 X105.340 Y102.433 F7800.000
G1 X106.444 Y102.996 E9.52149 F540.000
G1 X106.901 Y103.112 E9.55122
G1 X107.849 Y103.297 E9.61226
G1 X108.363 Y103.446 E9.64600
G1 X108.906 Y103.640 E9.68246
G1 X109.564 Y103.926 E9.72776
G1 X109.969 Y104.124 E9.75619
G1 X110.431 Y104.386 E9.78972
G1 X110.806 Y104.636 E9.81823
G1 X111.090 Y104.868 E9.84136
G1 X111.442 Y105.216 E9.87260
G1 X111.711 Y105.522 E9.89837
G1 X111.887 Y105.770 E9.91754
G1 X111.994 Y105.974 E9.93211
G1 X112.060 Y106.168 E9.94503
G1 X112.102 Y106.398 E9.95980
G1 X112.117 Y106.705 E9.97920
G1 X112.098 Y107.106 E10.00455
G1 X112.034 Y107.628 E10.03780
G1 X111.945 Y108.020 E10.06314
G1 X111.830 Y108.313 E10.08305
G1 X111.674 Y108.573 E10.10221
G1 X111.432 Y108.857 E10.12574
G1 X111.059 Y109.196 E10.15755
G1 X110.525 Y109.600 E10.19986
G1 X109.742 Y110.128 E10.25947
G1 X109.300 Y110.495 E10.29576
G1 X108.848 Y111.007 E10.33889
G1 X108.427 Y111.593 E10.38447
G1 X107.740 Y112.732 E10.46845
G1 X107.449 Y113.171 E10.50171
G1 X107.150 Y113.556 E10.53251
G1 X106.795 Y113.782 E10.55907
G1 X106.364 Y113.914 E10.58753
G1 X105.824 Y113.947 E10.62171
G1 X105.191 Y113.858 E10.66205
G1 X104.496 Y113.632 E10.70818
G1 X103.777 Y113.267 E10.75915
G1 X103.066 Y112.764 E10.81414
G1 X102.383 Y112.116 E10.87358
G1 X102.182 Y111.876 E10.89334
G1 X102.009 Y111.620 E10.91285
G1 X101.862 Y111.343 E10.93267
G1 X101.734 Y111.025 E10.95430
G1 X101.622 Y110.647 E10.97915
G1 X101.526 Y110.194 E11.00845
G1 X101.448 Y109.655 E11.04281
G1 X101.280 Y107.735 E11.16451
G1 X101.174 Y106.784 E11.22495
G1 X101.024 Y105.943 E11.27890
G1 X99.072 Y103.040 E11.49980
G1 X98.207 Y106.260 E11.71036
G1 X98.112 Y106.826 E11.74659
G1 X97.909 Y108.364 E11.84454
G1 X97.709 Y109.677 E11.92841
G1 X97.449 Y110.769 E11.99930
G1 X97.132 Y111.664 E12.05930
G1 X96.773 Y112.365 E12.10899
G1 X96.387 Y112.882 E12.14973
G1 X95.985 Y113.245 E12.18394
G1 X95.550 Y113.489 E12.21544
G1 X95.017 Y113.648 E12.25056
G1 X94.714 Y113.687 E12.26981
G1 X94.432 Y113.686 E12.28767
G1 X94.182 Y113.647 E12.30364
G1 X93.932 Y113.568 E12.32017
G1 X93.653 Y113.430 E12.33983
G1 X93.328 Y113.216 E12.36444
G1 X92.950 Y112.909 E12.39515
G1 X92.525 Y112.505 E12.43220
G1 X92.083 Y112.028 E12.47324
G1 X91.621 Y111.477 E12.51863
G1 X91.212 Y110.942 E12.56115
G1 X90.667 Y110.102 E12.62439
G1 X90.385 Y109.708 E12.65499
G1 X90.059 Y109.330 E12.68652
G1 X89.683 Y108.975 E12.71918
G1 X89.256 Y108.636 E12.75362
G1 X88.763 Y108.294 E12.79150
G1 X87.479 Y107.476 E12.88761
G1 X87.309 Y107.253 E12.90533
G1 X87.107 Y106.838 E12.93449
G1 X86.996 Y106.426 E12.96141
G1 X86.995 Y106.214 E12.97479
G1 X87.145 Y105.723 E13.00724
G1 X87.287 Y105.397 E13.02968
G1 X87.643 Y104.761 E13.07572
G1 X87.953 Y104.361 E13.10767
G1 X88.067 Y104.270 E13.11687
G1 X88.296 Y104.157 E13.13298
G1 X88.817 Y103.985 E13.16766
G1 X89.698 Y103.759 E13.22508
G1 X91.384 Y103.397 E13.33395
G1 X92.204 Y103.246 E13.38662
G1 X94.262 Y102.945 E13.51793
G1 X95.152 Y102.783 E13.57507
G1 X95.553 Y102.662 E13.60149
G1 X96.069 Y102.381 E13.63860
G1 X96.513 Y101.777 E13.68597
G1 X96.605 Y101.122 E13.72771
G1 X96.483 Y100.450 E13.77083
G1 X96.006 Y99.839 E13.81976
G1 X95.427 Y99.556 E13.86049
G1 X94.956 Y99.465 E13.89075
G1 X94.538 Y99.446 E13.91718
G1 X94.105 Y99.458 E13.94452
G1 X92.441 Y99.596 E14.05000
G1 X91.835 Y99.618 E14.08827
G1 X91.018 Y99.613 E14.13989
G1 X90.145 Y99.537 E14.19522
G1 X89.687 Y99.468 E14.22443
G1 X89.325 Y99.387 E14.24787
G1 X89.109 Y99.317 E14.26222
G1 X88.840 Y99.174 E14.28149
G1 X88.546 Y98.942 E14.30512
G1 X88.231 Y98.611 E14.33399
G1 X87.925 Y98.200 E14.36629
G1 X87.654 Y97.737 E14.40019
G1 X87.435 Y97.245 E14.43419
G1 X87.281 Y96.755 E14.46664
G1 X87.201 Y96.301 E14.49576
G1 X87.195 Y95.892 E14.52158
G1 X87.259 Y95.501 E14.54655
G1 X87.387 Y95.127 E14.57152
G1 X87.572 Y94.783 E14.59620
G1 X87.802 Y94.486 E14.61996
G1 X88.064 Y94.247 E14.64233
G1 X88.345 Y94.073 E14.66317
G1 X88.706 Y93.940 E14.68748
G1 X90.212 Y93.555 E14.78563
G1 X90.861 Y91.495 E14.92204
G1 X91.112 Y90.837 E14.96650
G1 X91.398 Y90.297 E15.00510
G1 X91.717 Y89.848 E15.03985
G1 X92.049 Y89.498 E15.07031
G1 X92.373 Y89.253 E15.09599
G1 X92.665 Y89.107 E15.11656
G1 X92.910 Y89.046 E15.13249
G1 X93.134 Y89.047 E15.14667
G1 X93.505 Y89.138 E15.17077
G1 X94.038 Y89.356 E15.20713
G1 X94.548 Y89.635 E15.24387
G1 X94.827 Y89.844 E15.26586
G1 X95.028 Y90.277 E15.29602
G1 X95.374 Y91.255 E15.36154
G1 X95.743 Y92.538 E15.44583
G1 X96.058 Y93.752 E15.52499
G1 X96.225 Y94.261 E15.55887
G1 X96.615 Y95.244 E15.62565
G1 X96.823 Y95.688 E15.65662
G1 X97.043 Y96.094 E15.68573
G1 X97.365 Y96.561 E15.72155
G1 X99.013 Y97.729 E15.84913
G1 X99.592 Y96.530 E15.93323
G1 X101.759 Y96.489 E16.07008
G1 X102.341 Y95.583 E16.13807
G1 X102.523 Y95.072 E16.17230
G1 X102.775 Y94.061 E16.23813
G1 X103.135 Y92.990 E16.30946
G1 X103.602 Y91.891 E16.38487
G1 X103.845 Y91.402 E16.41936
G1 X104.075 Y90.994 E16.44891
G1 X104.273 Y90.694 E16.47163
G1 X104.783 Y90.059 E16.52306
G1 X105.293 Y89.537 E16.56912
G1 X105.778 Y89.138 E16.60878
G1 X106.213 Y88.865 E16.64121
G1 X106.569 Y88.715 E16.66559
G1 X106.812 Y88.666 E16.68124
G1 X106.933 Y88.674 E16.68889
G1 X107.070 Y88.727 E16.69822
G1 X107.356 Y88.908 E16.71956
G1 X107.650 Y89.129 E16.74283
G1 X107.916 Y89.377 E16.76578
G1 X108.198 Y89.701 E16.79288
G1 X108.525 Y90.146 E16.82776
G1 X108.915 Y90.748 E16.87303
G1 X109.979 Y92.569 E17.00620
G1 X110.304 Y93.050 E17.04288
G1 X110.739 Y93.568 E17.08559
G1 X111.222 Y94.062 E17.12923
G1 X111.657 Y94.440 E17.16562
G1 X112.345 Y95.081 E17.22502
G1 X112.727 Y95.637 E17.26757
G1 X112.939 Y96.226 E17.30710
G1 X113.014 Y96.958 E17.35355
G1 X112.975 Y97.454 E17.38501
G1 X112.862 Y97.921 E17.41533
G1 X112.682 Y98.344 E17.44439
G1 X112.430 Y98.736 E17.47378
G1 X112.102 Y99.102 E17.50486
G1 X111.685 Y99.444 E17.53888
G1 X111.172 Y99.756 E17.57679
G1 X110.529 Y100.045 E17.62131
G1 X109.963 Y100.246 E17.65925
G1 X109.790 Y100.292 E17.67051
G1 X109.493 Y100.324 E17.68937
G1 X107.384 Y100.178 E17.82290
G1 X106.965 Y100.180 E17.84935
G1 X105.718 Y100.325 E17.92861
G1 X105.353 Y102.359 E18.05912
G1 X106.335 Y101.939 F7800.000
G1 X106.760 Y102.155 E18.08924 F378.000
G1 X107.090 Y102.239 E18.11070
G1 X108.065 Y102.430 E18.17344
G1 X108.637 Y102.596 E18.21106
G1 X109.231 Y102.808 E18.25087
G1 X109.821 Y103.058 E18.29135
G1 X110.385 Y103.334 E18.33100
G1 X110.899 Y103.625 E18.36827
G1 X111.338 Y103.918 E18.40161
G1 X111.687 Y104.204 E18.43012
G1 X112.091 Y104.602 E18.46595
G1 X112.412 Y104.967 E18.49666
G1 X112.650 Y105.302 E18.52255
G1 X112.817 Y105.620 E18.54526
G1 X112.927 Y105.943 E18.56680
G1 X112.991 Y106.297 E18.58949
G1 X113.010 Y106.704 E18.61524
G1 X112.988 Y107.181 E18.64537
G1 X112.915 Y107.782 E18.68363
G1 X112.800 Y108.283 E18.71606
G1 X112.634 Y108.708 E18.74491
G1 X112.401 Y109.096 E18.77347
G1 X112.075 Y109.479 E18.80525
G1 X111.630 Y109.884 E18.84321
G1 X111.044 Y110.327 E18.88959
G1 X110.278 Y110.843 E18.94794
G1 X109.923 Y111.137 E18.97704
G1 X109.547 Y111.564 E19.01295
G1 X109.172 Y112.086 E19.05353
G1 X108.496 Y113.208 E19.13627
G1 X108.179 Y113.685 E19.17244
G1 X107.901 Y114.058 E19.20183
G1 X107.728 Y114.246 E19.21796
G1 X107.172 Y114.600 E19.25955
G1 X106.524 Y114.798 E19.30234
G1 X105.789 Y114.844 E19.34887
G1 X104.989 Y114.731 E19.39984
G1 X104.154 Y114.460 E19.45530
G1 X103.314 Y114.033 E19.51480
G1 X102.498 Y113.455 E19.57793
G1 X101.731 Y112.728 E19.64467
G1 X101.468 Y112.414 E19.67057
G1 X101.242 Y112.080 E19.69599
G1 X101.052 Y111.719 E19.72177
G1 X100.890 Y111.319 E19.74900
G1 X100.756 Y110.867 E19.77880
G1 X100.647 Y110.350 E19.81213
G1 X100.561 Y109.762 E19.84970
G1 X100.391 Y107.822 E19.97266
G1 X100.290 Y106.912 E20.03049
G1 X100.178 Y106.285 E20.07070
G1 X99.426 Y105.165 E20.15588
G1 X99.080 Y106.450 E20.23990
G1 X98.586 Y109.848 E20.45671
G1 X98.306 Y111.022 E20.53293
G1 X97.953 Y112.018 E20.59967
G1 X97.533 Y112.838 E20.65784
G1 X97.051 Y113.486 E20.70887
G1 X96.508 Y113.974 E20.75494
G1 X95.900 Y114.316 E20.79898
G1 X95.202 Y114.524 E20.84495
G1 X94.770 Y114.580 E20.87247
G1 X94.362 Y114.578 E20.89825
G1 X93.976 Y114.519 E20.92288
G1 X93.598 Y114.398 E20.94801
G1 X93.208 Y114.206 E20.97538
G1 X92.799 Y113.936 E21.00638
G1 X92.360 Y113.580 E21.04206
G1 X91.890 Y113.133 E21.08305
G1 X91.413 Y112.619 E21.12730
G1 X90.924 Y112.035 E21.17538
