; generated by Slic3r 1.1.7 on 2014-12-04 at 17:22:49

; perimeters extrusion width = 0.50mm
; infill extrusion width = 0.52mm
; solid infill extrusion width = 0.52mm
; top infill extrusion width = 0.52mm

G21 ; set units to millimeters
M107
M104 S205 ; set temperature
G28 ; home all axes
G1 Z5 F5000 ; lift nozzle

M109 S205 ; wait for temperature to be reached
G90 ; use absolute coordinates
G92 E0
M82 ; use absolute distances for extrusion
G1 F1800.000 E-1.00000
G92 E0
G1 Z0.500 F7800.000
G1 X81.025 Y83.592 F7800.000
G1 E1.00000 F1800.000
G1 X82.787 Y82.052 E1.14774 F1080.000
G1 X84.962 Y81.191 E1.29548
G1 X86.375 Y81.045 E1.38516
G1 X113.625 Y81.045 E3.10588
G1 X115.931 Y81.442 E3.25362
G1 X117.971 Y82.587 E3.40136 F1080.000
G1 X119.510 Y84.349 E3.54910
G1 X120.371 Y86.525 E3.69684
G1 X120.518 Y87.938 E3.78652
G1 X120.518 Y112.062 E5.30991
G1 X120.121 Y114.368 E5.45765
G1 X118.975 Y116.408 E5.60539
G1 X117.213 Y117.948 E5.75313
G1 X115.038 Y118.809 E5.90087
G1 X113.625 Y118.955 E5.99055
G1 X86.375 Y118.955 E7.71127
G1 X84.069 Y118.558 E7.85901
G1 X82.029 Y117.413 E8.00675
G1 X80.490 Y115.651 E8.15449
G1 X79.629 Y113.475 E8.30223
G1 X79.482 Y112.062 E8.39191
G1 X79.482 Y87.938 E9.91530
G1 X79.879 Y85.632 E10.06304
G1 X80.988 Y83.657 E10.20605
G1 F1800.000 E9.20605
G92 E0
G1 X111.340 Y109.777 F7800.000
G1 E1.00000 F1800.000
G1 X88.660 Y109.777 E2.43209 F540.000
G1 X88.660 Y90.223 E3.66685
G1 X111.340 Y90.223 E5.09894
G1 X111.340 Y109.702 E6.32897
G1 X112.232 Y110.670 F7800.000
G1 X87.768 Y110.670 E7.87380 F540.000
G1 X87.768 Y89.330 E9.22130
G1 X112.232 Y89.330 E10.76613
G1 X112.232 Y110.595 E12.10889
G1 X113.125 Y111.562 F7800.000
G1 X86.875 Y111.562 E13.76646 F378.000
G1 X86.875 Y88.438 E15.22670
G1 X113.125 Y88.438 E16.88427
G1 X113.125 Y111.487 E18.33978
G1 X112.692 Y111.312 F7800.000
G1 X110.672 Y90.850 F7800.000
G1 X110.712 Y90.890 E18.34335 F1080.000
G1 X110.712 Y92.169 E18.42411
G1 X109.394 Y90.850 E18.54188
G1 X108.115 Y90.850 E18.62264
G1 X110.712 Y93.448 E18.85462
G1 X110.712 Y94.727 E18.93537
G1 X106.836 Y90.850 E19.28155
G1 X105.557 Y90.850 E19.36231
G1 X110.712 Y96.006 E19.82269
G1 X110.712 Y97.284 E19.90345
G1 X104.278 Y90.850 E20.47804
G1 X102.999 Y90.850 E20.55879
G1 X110.712 Y98.563 E21.24759
G1 X110.712 Y99.842 E21.32834
G1 X101.720 Y90.850 E22.13134
G1 X100.442 Y90.850 E22.21210
G1 X110.712 Y101.121 E23.12930
G1 X110.712 Y102.400 E23.21005
G1 X99.163 Y90.850 E24.24146
G1 X97.884 Y90.850 E24.32222
G1 X110.712 Y103.679 E25.46783
G1 X110.712 Y104.958 E25.54858
G1 X96.605 Y90.850 E26.80839
G1 X95.326 Y90.850 E26.88915
G1 X110.712 Y106.236 E28.26317
G1 X110.712 Y107.515 E28.34392
G1 X94.047 Y90.850 E29.83214
G1 X92.768 Y90.850 E29.91290
G1 X110.712 Y108.794 E31.51532
G1 X109.789 Y109.150 E31.57779
G1 X91.490 Y90.850 E33.21199
G1 X90.211 Y90.850 E33.29274
G1 X108.510 Y109.150 E34.92694
G1 X107.232 Y109.150 E35.00769
G1 X89.288 Y91.206 E36.61012
G1 X89.288 Y92.485 E36.69087
G1 X105.953 Y109.150 E38.17910
G1 X104.674 Y109.150 E38.25985
G1 X89.288 Y93.764 E39.63387
G1 X89.288 Y95.042 E39.71462
G1 X103.395 Y109.150 E40.97444
G1 X102.116 Y109.150 E41.05519
G1 X89.288 Y96.321 E42.20080
G1 X89.288 Y97.600 E42.28156
G1 X100.837 Y109.150 E43.31296
G1 X99.558 Y109.150 E43.39372
G1 X89.288 Y98.879 E44.31092
G1 X89.288 Y100.158 E44.39167
G1 X98.280 Y109.150 E45.19467
G1 X97.001 Y109.150 E45.27543
G1 X89.288 Y101.437 E45.96422
G1 X89.288 Y102.716 E46.04498
G1 X95.722 Y109.150 E46.61957
G1 X94.443 Y109.150 E46.70032
G1 X89.288 Y103.994 E47.16071
G1 X89.288 Y105.273 E47.24146
G1 X93.164 Y109.150 E47.58765
G1 X91.885 Y109.150 E47.66840
G1 X89.288 Y106.552 E47.90038
G1 X89.288 Y107.831 E47.98113
G1 X90.606 Y109.150 E48.09891
G1 X89.328 Y109.150 E48.17966
G1 X89.288 Y109.110 E48.18324
M106 S255
M104 S200 ; set temperature
G1 F1800.000 E47.18324
G92 E0
G1 Z0.900 F7800.000
G1 X112.375 Y110.812 F7800.000
G1 E1.00000 F1800.000
G1 X87.625 Y110.812 E1.70028 F1678.130
G1 X87.625 Y89.188 E2.31214
G1 X112.375 Y89.188 E3.01243
G1 X112.375 Y110.737 E3.62217
G1 X112.875 Y111.312 F7800.000
G1 X87.125 Y111.312 E4.35074 F1678.130
G1 X87.125 Y88.688 E4.99090
G1 X112.875 Y88.688 E5.71947
G1 X112.875 Y111.237 E6.35751
G1 X113.375 Y111.812 F7800.000
G1 X86.625 Y111.812 E7.11438 F1174.691
G1 X86.625 Y88.188 E7.78283
G1 X113.375 Y88.188 E8.53970
G1 X113.375 Y111.737 E9.20603
G1 X112.942 Y111.562 F7800.000
G1 X112.028 Y110.426 F7800.000
G1 X111.988 Y110.466 E9.20769 F3356.260
G1 X111.252 Y110.466 E9.22934
G1 X112.028 Y109.689 E9.26162
G1 X112.028 Y108.953 E9.28327
G1 X110.516 Y110.466 E9.34616
G1 X109.780 Y110.466 E9.36781
G1 X112.028 Y108.217 E9.46131
G1 X112.028 Y107.481 E9.48296
G1 X109.043 Y110.466 E9.60708
G1 X108.307 Y110.466 E9.62873
G1 X112.028 Y106.745 E9.78347
G1 X112.028 Y106.008 E9.80512
G1 X107.571 Y110.466 E9.99047
G1 X106.835 Y110.466 E10.01212
G1 X112.028 Y105.272 E10.22808
G1 X112.028 Y104.536 E10.24973
G1 X106.099 Y110.466 E10.49631
G1 X105.362 Y110.466 E10.51796
G1 X112.028 Y103.800 E10.79515
G1 X112.028 Y103.064 E10.81680
G1 X104.626 Y110.466 E11.12461
G1 X103.890 Y110.466 E11.14626
G1 X112.028 Y102.328 E11.48468
G1 X112.028 Y101.591 E11.50633
G1 X103.154 Y110.466 E11.87537
G1 X102.418 Y110.466 E11.89702
G1 X112.028 Y100.855 E12.29667
G1 X112.028 Y100.119 E12.31832
G1 X101.681 Y110.466 E12.74859
G1 X100.945 Y110.466 E12.77023
G1 X112.028 Y99.383 E13.23112
G1 X112.028 Y98.647 E13.25277
G1 X100.209 Y110.466 E13.74426
G1 X99.473 Y110.466 E13.76591
G1 X112.028 Y97.910 E14.28802
G1 X112.028 Y97.174 E14.30967
G1 X98.737 Y110.466 E14.86240
G1 X98.001 Y110.466 E14.88405
G1 X112.028 Y96.438 E15.46739
G1 X112.028 Y95.702 E15.48904
G1 X97.264 Y110.466 E16.10299
G1 X96.528 Y110.466 E16.12464
G1 X112.028 Y94.966 E16.76921
G1 X112.028 Y94.229 E16.79086
G1 X95.792 Y110.466 E17.46604
G1 X95.056 Y110.466 E17.48769
G1 X112.028 Y93.493 E18.19349
G1 X112.028 Y92.757 E18.21514
G1 X94.320 Y110.466 E18.95155
G1 X93.583 Y110.466 E18.97320
G1 X112.028 Y92.021 E19.74023
G1 X112.028 Y91.285 E19.76188
G1 X92.847 Y110.466 E20.55952
G1 X92.111 Y110.466 E20.58117
G1 X112.028 Y90.549 E21.40943
G1 X112.028 Y89.812 E21.43108
G1 X91.375 Y110.466 E22.28995
G1 X90.639 Y110.466 E22.31160
G1 X111.570 Y89.534 E23.18203
G1 X110.834 Y89.534 E23.20368
G1 X89.902 Y110.466 E24.07411
G1 X89.166 Y110.466 E24.09576
G1 X110.098 Y89.534 E24.96619
G1 X109.361 Y89.534 E24.98784
G1 X88.430 Y110.466 E25.85827
G1 X87.972 Y110.188 E25.87403
G1 X108.625 Y89.534 E26.73291
G1 X107.889 Y89.534 E26.75455
G1 X87.972 Y109.451 E27.58281
G1 X87.972 Y108.715 E27.60446
G1 X107.153 Y89.534 E28.40210
G1 X106.417 Y89.534 E28.42375
G1 X87.972 Y107.979 E29.19078
G1 X87.972 Y107.243 E29.21243
G1 X105.680 Y89.534 E29.94884
G1 X104.944 Y89.534 E29.97049
G1 X87.972 Y106.507 E30.67629
G1 X87.972 Y105.771 E30.69794
G1 X104.208 Y89.534 E31.37312
G1 X103.472 Y89.534 E31.39477
G1 X87.972 Y105.034 E32.03934
G1 X87.972 Y104.298 E32.06099
G1 X102.736 Y89.534 E32.67495
G1 X101.999 Y89.534 E32.69660
G1 X87.972 Y103.562 E33.27994
G1 X87.972 Y102.826 E33.30158
G1 X101.263 Y89.534 E33.85431
G1 X100.527 Y89.534 E33.87596
G1 X87.972 Y102.090 E34.39807
G1 X87.972 Y101.353 E34.41972
G1 X99.791 Y89.534 E34.91122
G1 X99.055 Y89.534 E34.93286
G1 X87.972 Y100.617 E35.39375
G1 X87.972 Y99.881 E35.41540
G1 X98.319 Y89.534 E35.84566
G1 X97.582 Y89.534 E35.86731
G1 X87.972 Y99.145 E36.26697
G1 X87.972 Y98.409 E36.28861
G1 X96.846 Y89.534 E36.65765
G1 X96.110 Y89.534 E36.67930
G1 X87.972 Y97.672 E37.01772
G1 X87.972 Y96.936 E37.03937
G1 X95.374 Y89.534 E37.34718
G1 X94.638 Y89.534 E37.36883
G1 X87.972 Y96.200 E37.64602
G1 X87.972 Y95.464 E37.66767
G1 X93.901 Y89.534 E37.91425
G1 X93.165 Y89.534 E37.93590
G1 X87.972 Y94.728 E38.15187
G1 X87.972 Y93.992 E38.17351
G1 X92.429 Y89.534 E38.35887
G1 X91.693 Y89.534 E38.38051
G1 X87.972 Y93.255 E38.53525
G1 X87.972 Y92.519 E38.55690
G1 X90.957 Y89.534 E38.68102
G1 X90.220 Y89.534 E38.70267
G1 X87.972 Y91.783 E38.79618
G1 X87.972 Y91.047 E38.81782
G1 X89.484 Y89.534 E38.88072
G1 X88.748 Y89.534 E38.90236
G1 X87.972 Y90.311 E38.93464
G1 X87.972 Y89.574 E38.95629
G1 X88.012 Y89.534 E38.95795
G1 F1800.000 E37.95795
G92 E0
G1 Z1.300 F7800.000
G1 X112.375 Y110.812 F7800.000
G1 E1.00000 F1800.000
G1 X87.625 Y110.812 E1.70028 F1678.130
G1 X87.625 Y89.188 E2.31214
G1 X112.375 Y89.188 E3.01243
G1 X112.375 Y110.737 E3.62217
G1 X112.875 Y111.312 F7800.000
G1 X87.125 Y111.312 E4.35074 F1678.130
G1 X87.125 Y88.688 E4.99090
G1 X112.875 Y88.688 E5.71947
G1 X112.875 Y111.237 E6.35751
G1 X113.375 Y111.812 F7800.000
G1 X86.625 Y111.812 E7.11438 F1174.691
G1 X86.625 Y88.188 E7.78283
G1 X113.375 Y88.188 E8.53970
G1 X113.375 Y111.737 E9.20603
G1 X112.942 Y111.562 F7800.000
G1 X111.988 Y89.534 F7800.000
G1 X112.028 Y89.574 E9.20769 F3356.260
G1 X112.028 Y90.311 E9.22934
G1 X111.252 Y89.534 E9.26162
G1 X110.516 Y89.534 E9.28327
G1 X112.028 Y91.047 E9.34616
G1 X112.028 Y91.783 E9.36781
G1 X109.780 Y89.534 E9.46131
G1 X109.043 Y89.534 E9.48296
G1 X112.028 Y92.519 E9.60708
G1 X112.028 Y93.255 E9.62873
G1 X108.307 Y89.534 E9.78347
G1 X107.571 Y89.534 E9.80512
G1 X112.028 Y93.992 E9.99047
G1 X112.028 Y94.728 E10.01212
G1 X106.835 Y89.534 E10.22808
G1 X106.099 Y89.534 E10.24973
G1 X112.028 Y95.464 E10.49631
G1 X112.028 Y96.200 E10.51796
G1 X105.362 Y89.534 E10.79515
G1 X104.626 Y89.534 E10.81680
G1 X112.028 Y96.936 E11.12461
G1 X112.028 Y97.672 E11.14626
G1 X103.890 Y89.534 E11.48468
G1 X103.154 Y89.534 E11.50633
G1 X112.028 Y98.409 E11.87537
G1 X112.028 Y99.145 E11.89702
G1 X102.418 Y89.534 E12.29667
G1 X101.681 Y89.534 E12.31832
G1 X112.028 Y99.881 E12.74859
G1 X112.028 Y100.617 E12.77024
G1 X100.945 Y89.534 E13.23112
G1 X100.209 Y89.534 E13.25277
G1 X112.028 Y101.353 E13.74426
G1 X112.028 Y102.090 E13.76591
G1 X99.473 Y89.534 E14.28802
G1 X98.737 Y89.534 E14.30967
G1 X112.028 Y102.826 E14.86240
G1 X112.028 Y103.562 E14.88405
G1 X98.001 Y89.534 E15.46739
G1 X97.264 Y89.534 E15.48904
G1 X112.028 Y104.298 E16.10299
G1 X112.028 Y105.034 E16.12464
G1 X96.528 Y89.534 E16.76921
G1 X95.792 Y89.534 E16.79086
G1 X112.028 Y105.771 E17.46604
G1 X112.028 Y106.507 E17.48769
G1 X95.056 Y89.534 E18.19349
G1 X94.320 Y89.534 E18.21514
G1 X112.028 Y107.243 E18.95155
G1 X112.028 Y107.979 E18.97320
G1 X93.583 Y89.534 E19.74023
G1 X92.847 Y89.534 E19.76188
G1 X112.028 Y108.715 E20.55952
G1 X112.028 Y109.451 E20.58117
G1 X92.111 Y89.534 E21.40943
G1 X91.375 Y89.534 E21.43108
G1 X112.028 Y110.188 E22.28995
G1 X111.570 Y110.466 E22.30571
G1 X90.639 Y89.534 E23.17614
G1 X89.902 Y89.534 E23.19779
G1 X110.834 Y110.466 E24.06822
G1 X110.098 Y110.466 E24.08987
G1 X89.166 Y89.534 E24.96030
G1 X88.430 Y89.534 E24.98195
G1 X109.361 Y110.466 E25.85239
G1 X108.625 Y110.466 E25.87403
G1 X87.972 Y89.812 E26.73291
G1 X87.972 Y90.549 E26.75455
G1 X107.889 Y110.466 E27.58281
G1 X107.153 Y110.466 E27.60446
G1 X87.972 Y91.285 E28.40210
G1 X87.972 Y92.021 E28.42375
G1 X106.417 Y110.466 E29.19078
G1 X105.680 Y110.466 E29.21243
G1 X87.972 Y92.757 E29.94884
G1 X87.972 Y93.493 E29.97049
G1 X104.944 Y110.466 E30.67629
G1 X104.208 Y110.466 E30.69794
G1 X87.972 Y94.229 E31.37313
G1 X87.972 Y94.966 E31.39477
G1 X103.472 Y110.466 E32.03934
G1 X102.736 Y110.466 E32.06099
G1 X87.972 Y95.702 E32.67495
G1 X87.972 Y96.438 E32.69660
G1 X101.999 Y110.466 E33.27994
G1 X101.263 Y110.466 E33.30158
G1 X87.972 Y97.174 E33.85431
G1 X87.972 Y97.910 E33.87596
G1 X100.527 Y110.466 E34.39807
G1 X99.791 Y110.466 E34.41972
G1 X87.972 Y98.647 E34.91122
G1 X87.972 Y99.383 E34.93286
G1 X99.055 Y110.466 E35.39375
G1 X98.319 Y110.466 E35.41540
G1 X87.972 Y100.119 E35.84566
G1 X87.972 Y100.855 E35.86731
G1 X97.582 Y110.466 E36.26697
G1 X96.846 Y110.466 E36.28861
G1 X87.972 Y101.591 E36.65765
G1 X87.972 Y102.328 E36.67930
G1 X96.110 Y110.466 E37.01772
G1 X95.374 Y110.466 E37.03937
G1 X87.972 Y103.064 E37.34718
G1 X87.972 Y103.800 E37.36883
G1 X94.638 Y110.466 E37.64603
G1 X93.901 Y110.466 E37.66767
G1 X87.972 Y104.536 E37.91425
G1 X87.972 Y105.272 E37.93590
G1 X93.165 Y110.466 E38.15187
G1 X92.429 Y110.466 E38.17352
G1 X87.972 Y106.008 E38.35887
G1 X87.972 Y106.745 E38.38051
G1 X91.693 Y110.466 E38.53525
G1 X90.957 Y110.466 E38.55690
G1 X87.972 Y107.481 E38.68102
G1 X87.972 Y108.217 E38.70267
G1 X90.220 Y110.466 E38.79618
G1 X89.484 Y110.466 E38.81782
G1 X87.972 Y108.953 E38.88072
G1 X87.972 Y109.689 E38.90236
G1 X88.748 Y110.466 E38.93464
G1 X88.012 Y110.466 E38.95629
G1 X87.972 Y110.426 E38.95795
G1 F1800.000 E37.95795
G92 E0
G1 Z1.700 F7800.000
G1 X112.375 Y110.812 F7800.000
G1 E1.00000 F1800.000
G1 X87.625 Y110.812 E1.70028 F1160.532
G1 X87.625 Y89.188 E2.31214
G1 X112.375 Y89.188 E3.01243
G1 X112.375 Y110.737 E3.62217
G1 X112.875 Y111.312 F7800.000
G1 X87.125 Y111.312 E4.35074 F1160.532
G1 X87.125 Y88.688 E4.99090
G1 X112.875 Y88.688 E5.71947
G1 X112.875 Y111.237 E6.35751
G1 X113.375 Y111.812 F7800.000
G1 X86.625 Y111.812 E7.11438 F812.373
G1 X86.625 Y88.188 E7.78283
G1 X113.375 Y88.188 E8.53970
G1 X113.375 Y111.737 E9.20603
G1 X112.942 Y111.562 F7800.000
G1 X111.975 Y110.446 F7800.000
G1 X112.008 Y110.413 E9.20740 F2321.065
G1 X112.008 Y108.576 E9.26142
G1 X111.956 Y108.628 E9.26360
G1 X111.086 Y108.395 E9.29006
G1 X109.814 Y109.668 E9.34299
G1 X110.022 Y110.446 E9.36667
G1 X107.332 Y110.446 F7800.000
G1 X107.304 Y110.340 E9.36988 F2321.065
G1 X108.577 Y109.067 E9.42281
G1 X109.446 Y109.300 E9.44928
G1 X110.719 Y108.027 E9.50221
G1 X110.486 Y107.158 E9.52868
G1 X111.759 Y105.885 E9.58161
G1 X112.008 Y105.952 E9.58920
G1 X112.008 Y103.799 E9.65251
G1 X111.158 Y104.648 E9.68785
G1 X111.391 Y105.518 E9.71431
G1 X110.119 Y106.791 E9.76724
G1 X109.249 Y106.558 E9.79371
G1 X107.976 Y107.831 E9.84664
G1 X108.209 Y108.700 E9.87311
G1 X106.936 Y109.973 E9.92604
G1 X106.067 Y109.740 E9.95250
G1 X105.361 Y110.446 E9.98185
G1 X104.626 Y110.446 E10.00346
G1 X105.700 Y109.372 E10.04809
G1 X105.467 Y108.503 E10.07456
G1 X106.740 Y107.230 E10.12749
G1 X107.609 Y107.463 E10.15396
G1 X108.882 Y106.190 E10.20689
G1 X108.649 Y105.321 E10.23335
G1 X109.922 Y104.048 E10.28628
G1 X110.791 Y104.281 E10.31275
G1 X112.008 Y103.064 E10.36336
G1 X112.008 Y102.800 E10.37112
G1 X111.831 Y102.139 E10.39125
G1 X112.008 Y101.962 E10.39862
G1 X112.008 Y101.227 E10.42023
G1 X111.463 Y101.771 E10.44288
G1 X110.594 Y101.538 E10.46934
G1 X109.321 Y102.811 E10.52228
G1 X109.554 Y103.681 E10.54874
G1 X108.281 Y104.953 E10.60167
G1 X107.412 Y104.721 E10.62814
G1 X106.139 Y105.993 E10.68107
G1 X106.372 Y106.863 E10.70754
G1 X105.099 Y108.136 E10.76047
G1 X104.230 Y107.903 E10.78693
G1 X102.957 Y109.175 E10.83986
G1 X103.190 Y110.045 E10.86633
G1 X102.789 Y110.446 E10.88300
G1 X100.608 Y110.446 E10.94715
G1 X100.447 Y109.848 E10.96534
G1 X101.720 Y108.575 E11.01827
G1 X102.590 Y108.808 E11.04474
G1 X103.862 Y107.535 E11.09767
G1 X103.630 Y106.666 E11.12414
G1 X104.902 Y105.393 E11.17707
G1 X105.772 Y105.626 E11.20354
G1 X107.045 Y104.353 E11.25647
G1 X106.812 Y103.484 E11.28293
G1 X108.084 Y102.211 E11.33586
G1 X108.954 Y102.444 E11.36233
G1 X110.227 Y101.171 E11.41526
G1 X109.994 Y100.302 E11.44173
G1 X111.267 Y99.029 E11.49466
G1 X112.008 Y99.228 E11.51723
G1 X112.008 Y96.538 F7800.000
G1 X111.939 Y96.519 E11.51934 F2321.065
G1 X110.666 Y97.792 E11.57227
G1 X110.899 Y98.661 E11.59873
G1 X109.626 Y99.934 E11.65166
G1 X108.757 Y99.701 E11.67813
G1 X107.484 Y100.974 E11.73106
G1 X107.717 Y101.843 E11.75753
G1 X106.444 Y103.116 E11.81046
G1 X105.575 Y102.883 E11.83692
G1 X104.302 Y104.156 E11.88986
G1 X104.535 Y105.026 E11.91632
G1 X103.262 Y106.298 E11.96925
G1 X102.393 Y106.065 E11.99572
G1 X101.120 Y107.338 E12.04865
G1 X101.353 Y108.208 E12.07512
G1 X100.080 Y109.480 E12.12805
G1 X99.211 Y109.248 E12.15451
G1 X98.013 Y110.446 E12.20433
G1 X96.175 Y110.446 E12.25836
G1 X96.701 Y109.920 E12.28021
G1 X97.570 Y110.153 E12.30668
G1 X98.843 Y108.880 E12.35961
G1 X98.610 Y108.011 E12.38608
G1 X99.883 Y106.738 E12.43901
G1 X100.752 Y106.971 E12.46547
G1 X102.025 Y105.698 E12.51841
G1 X101.792 Y104.829 E12.54487
G1 X103.065 Y103.556 E12.59780
G1 X103.935 Y103.789 E12.62427
