; generated by Slic3r 1.1.7 on 2014-12-04 at 17:22:49

; perimeters extrusion width = 0.50mm
; infill extrusion width = 0.52mm
; solid infill extrusion width = 0.52mm
; top infill extrusion width = 0.52mm

G21 ; set units to millimeters
M107
M104 S205 ; set temperature
G28 ; home all axes
G1 Z5 F5000 ; lift nozzle

M109 S205 ; wait for temperature to be reached
G90 ; use absolute coordinates
G92 E0
M82 ; use absolute distances for extrusion
G1 F1800.000 E-1.00000
G92 E0
G1 Z0.500 F7800.000
G1 X81.025 Y83.592 F7800.000
G1 E1.00000 F1800.000
G1 X82.787 Y82.052 E1.14774 F1080.000
G1 X84.962 Y81.191 E1.29548
G1 X86.375 Y81.045 E1.38516
G1 X113.625 Y81.045 E3.10588
G1 X115.931 Y81.442 E3.25362
G1 X117.971 Y82.587 E3.40136 F1080.000
G1 X119.510 Y84.349 E3.54910
G1 X120.371 Y86.525 E3.69684
G1 X120.518 Y87.938 E3.78652
G1 X120.518 Y112.062 E5.30991
G1 X120.121 Y114.368 E5.45765
G1 X118.975 Y116.408 E5.60539
G1 X117.213 Y117.948 E5.75313
G1 X115.038 Y118.809 E5.90087
G1 X113.625 Y118.955 E5.99055
G1 X86.375 Y118.955 E7.71127
G1 X84.069 Y118.558 E7.85901
G1 X82.029 Y117.413 E8.00675
G1 X80.490 Y115.651 E8.15449
G1 X79.629 Y113.475 E8.30223
G1 X79.482 Y112.062 E8.39191
G1 X79.482 Y87.938 E9.91530
G1 X79.879 Y85.632 E10.06304
G1 X80.988 Y83.657 E10.20605
G1 F1800.000 E9.20605
G92 E0
G1 X111.340 Y109.777 F7800.000
G1 E1.00000 F1800.000
G1 X88.660 Y109.777 E2.43209 F540.000
G1 X88.660 Y90.223 E3.66685
G1 X111.340 Y90.223 E5.09894
G1 X111.340 Y109.702 E6.32897
G1 X112.232 Y110.670 F7800.000
G1 X87.768 Y110.670 E7.87380 F540.000
G1 X87.768 Y89.330 E9.22130
G1 X112.232 Y89.330 E10.76613
G1 X112.232 Y110.595 E12.10889
G1 X113.125 Y111.562 F7800.000
G1 X86.875 Y111.562 E13.76646 F378.000
G1 X86.875 Y88.438 E15.22670
G1 X113.125 Y88.438 E16.88427
G1 X113.125 Y111.487 E18.33978
G1 X112.692 Y111.312 F7800.000
G1 X110.672 Y90.850 F7800.000
G1 X110.712 Y90.890 E18.34335 F1080.000
G1 X110.712 Y92.169 E18.42411
G1 X109.394 Y90.850 E18.54188
G1 X108.115 Y90.850 E18.62264
G1 X110.712 Y93.448 E18.85462
G1 X110.712 Y94.727 E18.93537
G1 X106.836 Y90.850 E19.28155
G1 X105.557 Y90.850 E19.36231
G1 X110.712 Y96.006 E19.82269
G1 X110.712 Y97.284 E19.90345
G1 X104.278 Y90.850 E20.47804
G1 X102.999 Y90.850 E20.55879
G1 X110.712 Y98.563 E21.24759
G1 X110.712 Y99.842 E21.32834
G1 X101.720 Y90.850 E22.13134
G1 X100.442 Y90.850 E22.21210
G1 X110.712 Y101.121 E23.12930
G1 X110.712 Y102.400 E23.21005
G1 X99.163 Y90.850 E24.24146
G1 X97.884 Y90.850 E24.32222
G1 X110.712 Y103.679 E25.46783
G1 X110.712 Y104.958 E25.54858
G1 X96.605 Y90.850 E26.80839
G1 X95.326 Y90.850 E26.88915
G1 X110.712 Y106.236 E28.26317
G1 X110.712 Y107.515 E28.34392
G1 X94.047 Y90.850 E29.83214
G1 X92.768 Y90.850 E29.91290
G1 X110.712 Y108.794 E31.51532
G1 X109.789 Y109.150 E31.57779
