; generated by Slic3r 1.1.7 on 2014-12-08 at 13:46:33

; perimeters extrusion width = 0.50mm
; infill extrusion width = 0.52mm
; solid infill extrusion width = 0.52mm
; top infill extrusion width = 0.52mm

G21 ; set units to millimeters
M107
M104 S205 ; set temperature
G28 ; home all axes
G1 Z5 F5000 ; lift nozzle

M109 S205 ; wait for temperature to be reached
G90 ; use absolute coordinates
G92 E0
M82 ; use absolute distances for extrusion
G1 F1800.000 E-1.00000
G92 E0
G1 Z0.500 F7800.000
G1 X37.173 Y69.934 F7800.000
G1 E1.00000 F1800.000
G1 X39.455 Y69.190 E1.15154 F1080.000
G1 X43.278 Y68.719 E1.39477
G1 X47.016 Y68.720 E1.63079
G1 X81.572 Y69.212 E3.81308 F1080.000
G1 X84.407 Y69.470 E3.99285
G1 X85.226 Y69.585 E4.04510
G1 X166.072 Y85.906 E9.25316
G1 X167.791 Y86.498 E9.36793
G1 X169.990 Y87.597 E9.52320
G1 X171.875 Y88.984 E9.67094
G1 X172.643 Y89.939 E9.74832
G1 X173.523 Y91.259 E9.84848
G1 X174.471 Y93.397 E9.99622
G1 X174.650 Y95.730 E10.14396
G1 X174.360 Y97.158 E10.23596
G1 X173.849 Y98.778 E10.34324
G1 X173.121 Y100.355 E10.45286
G1 X172.221 Y101.796 E10.56017
G1 X170.662 Y103.540 E10.70791
G1 X169.187 Y104.436 E10.81684
G1 X151.225 Y112.366 E12.05672
G1 X148.378 Y113.123 E12.24274
G1 X85.408 Y128.359 E16.33373
G1 X46.661 Y131.281 E18.78739
G1 X42.828 Y131.281 E19.02945
G1 X41.098 Y131.060 E19.13956
G1 X37.117 Y130.028 E19.39925
G1 X34.088 Y128.342 E19.61817
G1 X30.844 Y125.246 E19.90132
G1 X29.170 Y122.734 E20.09190
G1 X26.232 Y115.073 E20.61003
G1 X25.809 Y113.263 E20.72742
G1 X25.320 Y107.781 E21.07499
G1 X25.336 Y95.441 E21.85420
G1 X25.767 Y89.287 E22.24374
G1 X25.854 Y88.470 E22.29562
G1 X26.768 Y82.944 E22.64925
G1 X27.310 Y81.180 E22.76579
G1 X29.089 Y77.326 E23.03385
G1 X29.974 Y75.897 E23.13997
G1 X32.075 Y73.282 E23.35182
G1 X34.204 Y71.518 E23.52641
G1 X37.107 Y69.969 E23.73417
G1 F1800.000 E22.73417
G92 E0
G1 X93.948 Y112.713 F7800.000
G1 E1.00000 F1800.000
G1 X93.948 Y113.645 E1.05889 F540.000
G1 X93.309 Y114.781 E1.14119
G1 X91.367 Y116.722 E1.31455
G1 X88.419 Y118.247 E1.52416
G1 X84.637 Y119.193 E1.77030
G1 X81.029 Y119.090 E1.99824
G1 X77.808 Y118.123 E2.21061
G1 X74.450 Y116.734 E2.44007
G1 X71.660 Y115.466 E2.63358
G1 X71.660 Y115.442 E2.63510
G1 X68.216 Y114.816 E2.85617
G1 X63.745 Y115.681 E3.14371
G1 X59.977 Y117.565 E3.40973
G1 X57.016 Y119.460 E3.63172
G1 X53.960 Y120.770 E3.84168
G1 X50.520 Y121.691 E4.06652
G1 X46.543 Y122.103 E4.31902
G1 X43.119 Y122.103 E4.53523
G1 X39.995 Y121.293 E4.73900
G1 X37.552 Y118.961 E4.95226
G1 X34.917 Y112.086 E5.41717
G1 X34.498 Y107.672 E5.69715
G1 X34.498 Y96.001 E6.43414
G1 X34.927 Y89.861 E6.82283
G1 X35.773 Y84.746 E7.15017
G1 X37.304 Y81.427 E7.38100
G1 X38.937 Y79.395 E7.54557
G1 X41.137 Y78.222 E7.70301
G1 X43.438 Y77.897 E7.84979
G1 X46.729 Y77.897 E8.05757
G1 X49.740 Y78.409 E8.25045
G1 X52.980 Y79.939 E8.47672
G1 X56.229 Y81.990 E8.71933
G1 X59.006 Y83.468 E8.91795
G1 X62.615 Y84.308 E9.15197
G1 X65.636 Y83.736 E9.34612
G1 X67.495 Y83.216 E9.46799
G1 X70.067 Y82.215 E9.64226
G1 X72.055 Y81.258 E9.78160
G1 X74.020 Y80.013 E9.92849
G1 X76.279 Y78.989 E10.08510
G1 X78.283 Y78.362 E10.21768
G1 X80.844 Y78.362 E10.37940
G1 X83.521 Y78.605 E10.54914
G1 X86.158 Y79.164 E10.71938
G1 X86.519 Y79.274 E10.74317
G1 X86.497 Y79.825 E10.77800
G1 X84.490 Y80.264 E10.90769
G1 X82.304 Y81.348 E11.06180
G1 X80.622 Y83.418 E11.23018
G1 X79.653 Y84.940 E11.34415
G1 X78.988 Y87.737 E11.52570
G1 X79.231 Y90.900 E11.72601
G1 X80.087 Y93.836 E11.91913
G1 X81.426 Y95.844 E12.07152
G1 X82.903 Y97.187 E12.19759
G1 X84.931 Y98.357 E12.34545
G1 X86.464 Y98.357 E12.44225
G1 X86.521 Y99.009 E12.48357
G1 X85.297 Y99.225 E12.56210
G1 X83.606 Y100.382 E12.69148
G1 X82.335 Y102.641 E12.85515
G1 X81.873 Y105.876 E13.06148
G1 X83.066 Y108.657 E13.25258
G1 X85.272 Y111.002 E13.45585
G1 X88.565 Y112.257 E13.67839
G1 X92.088 Y112.663 E13.90232
G1 X93.873 Y112.711 E14.01506
G1 F1800.000 E13.01506
G92 E0
G1 X140.652 Y98.918 F7800.000
G1 E1.00000 F1800.000
G1 X140.776 Y98.357 E1.03624 F540.000
G1 X142.866 Y98.357 E1.16820
G1 X145.715 Y96.042 E1.40006
G1 X146.778 Y93.386 E1.58065
G1 X148.631 Y93.572 E1.69826
G1 X151.178 Y94.943 E1.88092
G1 X154.496 Y96.365 E2.10892
G1 X157.364 Y97.148 E2.29662
G1 X159.817 Y97.148 E2.45153
G1 X161.607 Y95.656 E2.59867
G1 X162.881 Y94.948 E2.69068
G1 X164.169 Y94.948 E2.77199
G1 X165.318 Y95.523 E2.85312
G1 X164.807 Y96.340 E2.91401
G1 X148.683 Y103.545 E4.02917
G1 X147.211 Y103.937 E4.12538
G1 X146.519 Y103.434 E4.17939
G1 X145.595 Y101.771 E4.29956
G1 X142.826 Y99.925 E4.50969
G1 X140.720 Y98.949 E4.65624
G1 X146.093 Y92.516 F7800.000
G1 X147.043 Y92.516 E4.71624 F540.000
G1 X148.897 Y92.701 E4.83386
G1 X151.566 Y94.138 E5.02528
G1 X154.791 Y95.520 E5.24684
G1 X157.484 Y96.255 E5.42308
G1 X159.494 Y96.255 E5.55003
G1 X161.100 Y94.916 E5.68207
G1 X162.650 Y94.055 E5.79399
G1 X164.380 Y94.055 E5.90322
G1 X165.954 Y94.843 E6.01438
G1 X166.258 Y95.299 E6.04902
G1 X166.001 Y96.114 E6.10298
G1 X165.420 Y97.044 E6.17226
G1 X148.982 Y104.389 E7.30912
G1 X147.030 Y104.909 E7.43670
G1 X145.835 Y104.040 E7.53003
G1 X144.920 Y102.393 E7.64899
G1 X142.388 Y100.706 E7.84109
G1 X140.572 Y99.864 E7.96752
G1 X86.813 Y99.864 E11.36214
G1 X85.642 Y100.071 E11.43725
G1 X84.282 Y101.001 E11.54130
G1 X83.195 Y102.933 E11.68125
G1 X82.792 Y105.754 E11.86120
G1 X83.824 Y108.160 E12.02653
G1 X85.781 Y110.241 E12.20689
G1 X88.778 Y111.383 E12.40941
G1 X92.151 Y111.772 E12.62379
G1 X94.840 Y111.843 E12.79367
G1 X94.840 Y113.879 E12.92221
G1 X94.027 Y115.326 E13.02702
G1 X91.901 Y117.452 E13.21687
G1 X88.737 Y119.088 E13.44181
G1 X84.735 Y120.089 E13.70229
G1 X80.886 Y119.979 E13.94544
G1 X77.508 Y118.965 E14.16811
G1 X74.095 Y117.553 E14.40138
G1 X71.303 Y116.284 E14.59498
G1 X68.221 Y115.724 E14.79283
G1 X64.035 Y116.534 E15.06206
G1 X60.418 Y118.342 E15.31738
G1 X57.435 Y120.251 E15.54102
G1 X54.253 Y121.615 E15.75967
G1 X50.683 Y122.572 E15.99304
G1 X46.589 Y122.995 E16.25293
G1 X43.005 Y122.995 E16.47923
G1 X39.547 Y122.099 E16.70484
G1 X36.791 Y119.468 E16.94540
G1 X34.039 Y112.292 E17.43074
G1 X33.605 Y107.715 E17.72106
G1 X33.605 Y95.970 E18.46269
G1 X34.039 Y89.756 E18.85600
G1 X34.911 Y84.481 E19.19361
G1 X36.540 Y80.953 E19.43898
G1 X38.355 Y78.694 E19.62201
G1 X40.856 Y77.360 E19.80096
G1 X43.376 Y77.005 E19.96165
G1 X46.804 Y77.005 E20.17814
G1 X50.011 Y77.549 E20.38352
G1 X53.411 Y79.155 E20.62098
G1 X56.678 Y81.218 E20.86493
G1 X59.322 Y82.625 E21.05408
G1 X62.634 Y83.396 E21.26883
G1 X65.433 Y82.866 E21.44867
G1 X67.212 Y82.368 E21.56536
G1 X69.711 Y81.396 E21.73467
G1 X71.621 Y80.476 E21.86855
G1 X73.595 Y79.226 E22.01609
G1 X75.960 Y78.154 E22.18007
G1 X78.146 Y77.469 E22.32472
G1 X80.884 Y77.469 E22.49761
G1 X83.654 Y77.721 E22.67324
G1 X86.381 Y78.299 E22.84926
G1 X87.939 Y78.773 E22.95206
G1 X89.084 Y79.297 E23.03160
G1 X89.391 Y79.603 E23.05898
G1 X89.103 Y80.096 E23.09499
G1 X88.878 Y80.289 E23.11374
G1 X87.102 Y80.606 E23.22765
G1 X84.788 Y81.112 E23.37721
G1 X82.874 Y82.062 E23.51212
G1 X81.348 Y83.940 E23.66498
G1 X80.487 Y85.293 E23.76622
G1 X79.888 Y87.808 E23.92947
G1 X80.114 Y90.739 E24.11510
G1 X80.906 Y93.455 E24.29373
G1 X82.108 Y95.257 E24.43054
G1 X83.433 Y96.462 E24.54360
G1 X85.170 Y97.465 E24.67029
G1 X142.549 Y97.465 E28.29347
G1 X144.973 Y95.495 E28.49068
G1 X146.043 Y92.820 E28.67260
G1 X146.081 Y92.590 E28.68735
G1 X145.337 Y91.623 F7800.000
G1 X147.088 Y91.623 E28.79792 F378.000
G1 X149.163 Y91.831 E28.92961
G1 X151.954 Y93.333 E29.12978
G1 X155.086 Y94.676 E29.34492
G1 X157.603 Y95.362 E29.50969
G1 X159.171 Y95.362 E29.60868
G1 X160.593 Y94.177 E29.72561
G1 X162.419 Y93.163 E29.85745
G1 X164.590 Y93.163 E29.99459
G1 X166.565 Y94.150 E30.13403
G1 X167.239 Y95.160 E30.21066
G1 X166.818 Y96.491 E30.29880
G1 X166.032 Y97.748 E30.39243
G1 X149.281 Y105.233 E31.55099
G1 X146.849 Y105.882 E31.70994
G1 X145.150 Y104.646 E31.84258
G1 X144.244 Y103.016 E31.96033
G1 X141.951 Y101.487 E32.13442
G1 X140.375 Y100.757 E32.24407
G1 X86.891 Y100.757 E35.62133
G1 X85.987 Y100.916 E35.67932
G1 X84.958 Y101.621 E35.75806
G1 X84.055 Y103.225 E35.87429
G1 X83.711 Y105.632 E36.02786
G1 X84.583 Y107.663 E36.16742
G1 X86.291 Y109.480 E36.32486
G1 X88.992 Y110.509 E36.50736
G1 X92.214 Y110.880 E36.71220
G1 X95.092 Y110.957 E36.89401
G1 X95.733 Y111.701 E36.95599
G1 X95.733 Y114.113 E37.10830
G1 X94.745 Y115.870 E37.23562
G1 X92.434 Y118.181 E37.44197
G1 X89.054 Y119.929 E37.68224
G1 X84.832 Y120.985 E37.95706
G1 X80.742 Y120.868 E38.21542
G1 X77.208 Y119.808 E38.44839
G1 X73.739 Y118.372 E38.68547
G1 X71.035 Y117.143 E38.87305
G1 X68.226 Y116.632 E39.05333
G1 X64.325 Y117.387 E39.30425
G1 X60.860 Y119.120 E39.54886
G1 X57.855 Y121.043 E39.77416
G1 X54.546 Y122.461 E40.00149
G1 X50.845 Y123.453 E40.24339
G1 X46.635 Y123.888 E40.51067
G1 X42.891 Y123.888 E40.74707
G1 X39.098 Y122.905 E40.99451
G1 X36.030 Y119.976 E41.26237
G1 X33.162 Y112.497 E41.76815
G1 X32.712 Y107.757 E42.06881
G1 X32.712 Y95.939 E42.81507
G1 X33.152 Y89.652 E43.21300
G1 X34.050 Y84.217 E43.56088
G1 X35.775 Y80.480 E43.82079
G1 X37.774 Y77.992 E44.02229
G1 X40.575 Y76.498 E44.22274
G1 X43.313 Y76.112 E44.39736
G1 X46.879 Y76.112 E44.62256
G1 X50.281 Y76.690 E44.84043
G1 X53.841 Y78.371 E45.08907
G1 X57.126 Y80.445 E45.33438
G1 X59.638 Y81.782 E45.51406
G1 X62.653 Y82.483 E45.70953
G1 X65.229 Y81.996 E45.87506
G1 X66.929 Y81.520 E45.98657
G1 X69.355 Y80.577 E46.15092
G1 X71.187 Y79.694 E46.27934
G1 X73.170 Y78.439 E46.42752
G1 X75.641 Y77.318 E46.59888
G1 X78.010 Y76.577 E46.75560
G1 X80.925 Y76.577 E46.93966
G1 X83.788 Y76.837 E47.12118
G1 X86.604 Y77.433 E47.30298
G1 X88.256 Y77.936 E47.41199
G1 X89.602 Y78.552 E47.50545
G1 X90.306 Y79.256 E47.56836
G1 X90.363 Y79.709 E47.59716
G1 X89.799 Y80.676 E47.66785
G1 X89.274 Y81.125 E47.71146
G1 X87.276 Y81.482 E47.83964
G1 X85.087 Y81.961 E47.98116
G1 X83.445 Y82.775 E48.09688
G1 X82.073 Y84.463 E48.23423
G1 X81.321 Y85.646 E48.32273
G1 X80.789 Y87.879 E48.46769
G1 X80.997 Y90.578 E48.63864
G1 X81.725 Y93.073 E48.80277
G1 X82.790 Y94.671 E48.92400
G1 X83.962 Y95.737 E49.02406
G1 X85.409 Y96.572 E49.12958
G1 X142.232 Y96.572 E52.71765
G1 X144.230 Y94.948 E52.88021
G1 X145.178 Y92.578 E53.04141
G1 X145.325 Y91.697 E53.09782
G1 X145.756 Y91.897 F7800.000
G1 F1800.000 E52.09782
G92 E0
G1 X92.671 Y113.306 F7800.000
G1 E1.00000 F1800.000
G1 X93.149 Y113.785 E1.04277 F1080.000
G1 X92.633 Y114.542 E1.10063
G1 X91.294 Y113.203 E1.22020
G1 X89.854 Y113.037 E1.31171
G1 X91.996 Y115.178 E1.50297
G1 X91.359 Y115.815 E1.55983
G1 X88.415 Y112.870 E1.82281
G1 X86.357 Y112.087 F7800.000
G1 X90.655 Y116.385 E2.20662 F1080.000
G1 X89.816 Y116.819 E2.26630
G1 X54.873 Y81.876 E5.38674
G1 X57.816 Y83.546 F7800.000
G1 X81.975 Y107.704 E7.54414 F1080.000
G1 X81.262 Y105.718 F7800.000
G1 X59.853 Y84.309 E9.45595 F1080.000
G1 X61.513 Y84.695 E9.56353
G1 X81.421 Y104.603 E11.34137
G1 X81.580 Y103.489 E11.41245
G1 X62.970 Y84.879 E13.07438
G1 X64.041 Y84.676 E13.14319
G1 X81.756 Y102.391 E14.72518
G1 X82.214 Y101.576 E14.78423
G1 X65.112 Y84.474 E16.31152
G1 X66.154 Y84.242 E16.37894
G1 X82.673 Y100.761 E17.85410
G1 X83.132 Y99.947 E17.91314
G1 X67.149 Y83.964 E19.34043
G1 X68.108 Y83.650 E19.40418
G1 X83.888 Y99.429 E20.81329
G1 X79.379 Y93.647 F7800.000
G1 X69.025 Y83.293 E21.73785 F1080.000
G1 X69.942 Y82.937 E21.79997
G1 X78.854 Y91.849 E22.59583
G1 X78.554 Y90.275 E22.69701
G1 X70.825 Y82.546 E23.38717
G1 X71.685 Y82.132 E23.44742
G1 X78.448 Y88.895 E24.05134
G1 X78.385 Y87.559 E24.13578
G1 X72.527 Y81.701 E24.65890
G1 X73.307 Y81.208 E24.71717
G1 X78.630 Y86.531 E25.19253
G1 X78.875 Y85.502 E25.25930
G1 X74.087 Y80.714 E25.68690
G1 X74.934 Y80.288 E25.74679
G1 X79.173 Y84.527 E26.12534
G1 X79.668 Y83.749 E26.18359
G1 X75.810 Y79.890 E26.52813
G1 X76.706 Y79.513 E26.58951
G1 X80.171 Y82.978 E26.89898
G1 X80.742 Y82.276 E26.95614
G1 X77.676 Y79.209 E27.22997
G1 X78.729 Y78.989 E27.29793
G1 X81.313 Y81.573 E27.52866
G1 X81.884 Y80.870 E27.58582
G1 X80.003 Y78.989 E27.75381
G1 X81.323 Y79.035 E27.83719
G1 X82.726 Y80.439 E27.96251
G1 X82.723 Y79.163 E28.04309
G1 X83.577 Y80.017 E28.11934
G1 X84.280 Y79.446 E28.17651
G1 X84.231 Y79.397 E28.18089
G1 X33.916 Y88.097 F7800.000
G1 X51.798 Y80.075 F7800.000
G1 X88.977 Y117.253 E31.50095 F1080.000
G1 X77.636 Y117.374 F7800.000
G1 X39.871 Y79.608 E34.87346 F1080.000
G1 X40.701 Y79.165 E34.93289
G1 X79.517 Y117.981 E38.39925
G1 X81.279 Y118.469 E38.51467
G1 X41.599 Y78.790 E42.05810
G1 X42.715 Y78.633 E42.12927
G1 X82.590 Y118.507 E45.69011
G1 X83.901 Y118.544 E45.77292
G1 X43.881 Y78.524 E49.34676
G1 X45.154 Y78.524 E49.42717
G1 X85.068 Y118.439 E52.99156
G1 X86.087 Y118.184 E53.05787
G1 X46.428 Y78.524 E56.59952
G1 X47.911 Y78.734 E56.69411
G1 X87.106 Y117.929 E60.19427
G1 X88.125 Y117.674 E60.26059
G1 X49.445 Y78.995 E63.71474
G1 X35.694 Y112.362 F7800.000
G1 X44.807 Y121.476 E64.52856 F1080.000
G1 X46.081 Y121.476 E64.60898
G1 X35.427 Y110.821 E65.56041
G1 X35.293 Y109.414 E65.64965
G1 X47.275 Y121.397 E66.71967
G1 X48.429 Y121.277 E66.79293
G1 X35.160 Y108.008 E67.97793
G1 X35.125 Y106.699 E68.06056
G1 X49.583 Y121.158 E69.35170
G1 X50.694 Y120.995 E69.42261
G1 X35.125 Y105.426 E70.81298
G1 X35.125 Y104.152 E70.89340
G1 X51.699 Y120.726 E72.37346
G1 X52.703 Y120.457 E72.43912
G1 X35.125 Y102.879 E74.00886
G1 X35.125 Y101.606 E74.08928
G1 X53.707 Y120.188 E75.74872
G1 X54.604 Y119.811 E75.81014
G1 X35.125 Y100.332 E77.54965
G1 X35.125 Y99.059 E77.63006
G1 X55.496 Y119.429 E79.44918
G1 X56.387 Y119.047 E79.51042
G1 X35.125 Y97.785 E81.40915
G1 X35.125 Y96.512 E81.48956
G1 X57.207 Y118.593 E83.46148
G1 X57.983 Y118.096 E83.51970
G1 X35.176 Y95.289 E85.55638
G1 X35.259 Y94.099 E85.63172
G1 X58.760 Y117.599 E87.73032
G1 X59.536 Y117.102 E87.78853
G1 X35.343 Y92.909 E89.94904
G1 X35.426 Y91.719 E90.02438
G1 X60.373 Y116.666 E92.25219
G1 X61.222 Y116.241 E92.31212
G1 X35.509 Y90.528 E94.60831
G1 X35.641 Y89.387 E94.68087
G1 X62.071 Y115.817 E97.04109
G1 X62.920 Y115.392 E97.10103
G1 X35.822 Y88.294 E99.52093
G1 X36.002 Y87.201 E99.59087
G1 X63.827 Y115.026 E102.07567
G1 X64.894 Y114.820 E102.14429
G1 X36.183 Y86.108 E104.70824
G1 X36.364 Y85.016 E104.77818
G1 X65.961 Y114.613 E107.42128
G1 X67.028 Y114.407 E107.48990
G1 X36.749 Y84.127 E110.19388
G1 X37.151 Y83.256 E110.25448
G1 X68.095 Y114.200 E113.01782
G1 X69.598 Y114.429 E113.11382
G1 X37.553 Y82.385 E115.97546
G1 X38.002 Y81.560 E116.03474
G1 X71.154 Y114.712 E118.99529
G1 X73.186 Y115.470 F7800.000
G1 X38.569 Y80.854 E122.08659 F1080.000
G1 X39.137 Y80.148 E122.14379
G1 X75.464 Y116.475 E125.38782
G1 X38.713 Y119.202 F7800.000
G1 X38.070 Y118.559 E125.44525 F1080.000
G1 X37.278 Y116.493 F7800.000
G1 X41.932 Y121.147 E125.86085 F1080.000
G1 X43.534 Y121.476 E125.96412
G1 X36.486 Y114.428 E126.59350
G1 X86.939 Y98.664 F7800.000
G1 X140.251 Y98.664 E131.84541 F360.000
G1 X142.949 Y99.291 F7800.000
G1 X142.892 Y99.233 E131.85058 F1080.000
G1 X143.548 Y98.611 E131.90771
G1 X148.012 Y103.074 E132.30634
G1 X148.954 Y102.737 E132.36949
G1 X144.254 Y98.037 E132.78917
G1 X144.960 Y97.464 E132.84658
G1 X149.838 Y102.342 E133.28219
G1 X150.722 Y101.947 E133.34333
G1 X145.665 Y96.891 E133.79487
G1 X146.306 Y96.253 E133.85198
G1 X151.606 Y101.552 E134.32521
G1 X152.490 Y101.157 E134.38634
G1 X146.672 Y95.339 E134.90588
G1 X147.037 Y94.426 E134.96801
G1 X153.374 Y100.762 E135.53386
G1 X154.258 Y100.367 E135.59500
G1 X148.033 Y94.142 E136.15088
G1 X150.414 Y95.244 F7800.000
G1 X155.142 Y99.972 E136.57308 F1080.000
G1 X156.026 Y99.577 E136.63422
G1 X152.746 Y96.298 E136.92706
G1 X154.836 Y97.108 F7800.000
G1 X156.910 Y99.182 E137.11227 F1080.000
G1 X156.594 Y97.588 E137.21489
G1 X157.794 Y98.787 E137.32200
G1 X158.060 Y97.775 E137.38810
G1 X158.678 Y98.392 E137.44323
G1 X159.385 Y97.821 E137.50066
G1 X159.339 Y97.775 E137.50477
G1 X160.997 Y97.243 F7800.000
G1 X161.075 Y97.321 E137.51171 F1080.000
G1 X162.197 Y96.819 E137.58936
G1 X161.740 Y96.362 E137.63022
G1 X162.744 Y95.742 E137.70475
G1 X163.320 Y96.318 E137.75620
G1 X164.428 Y95.801 E137.83338
