; generated by Slic3r 1.1.7 on 2014-12-08 at 13:10:32

; perimeters extrusion width = 0.50mm
; infill extrusion width = 0.52mm
; solid infill extrusion width = 0.52mm
; top infill extrusion width = 0.52mm

G21 ; set units to millimeters
M107
M104 S205 ; set temperature
G28 ; home all axes
G1 Z5 F5000 ; lift nozzle

M109 S205 ; wait for temperature to be reached
G90 ; use absolute coordinates
G92 E0
M82 ; use absolute distances for extrusion
G1 F1800.000 E-1.00000
G92 E0
G1 Z0.500 F7800.000
G1 X68.565 Y59.906 F7800.000
G1 E1.00000 F1800.000
G1 X70.070 Y58.950 E1.11258 F1080.000
G1 X82.097 Y53.342 E1.95051
G1 X85.109 Y52.697 E2.14504
G1 X114.994 Y53.129 E4.03235
G1 X117.808 Y53.774 E4.21462 F1080.000
G1 X129.834 Y59.382 E5.05255
G1 X131.756 Y60.716 E5.20029
G1 X133.121 Y62.617 E5.34803
G1 X133.681 Y64.281 E5.45892
G1 X142.486 Y108.440 E8.30228
G1 X142.619 Y109.788 E8.38780
G1 X142.619 Y123.058 E9.22573
G1 X142.222 Y125.364 E9.37348
G1 X141.076 Y127.404 E9.52122
G1 X139.602 Y128.758 E9.64761
G1 X114.083 Y146.111 E11.59628
G1 X111.953 Y147.079 E11.74402
G1 X110.208 Y147.303 E11.85517
G1 X89.792 Y147.303 E13.14429
G1 X87.487 Y146.906 E13.29203
G1 X85.917 Y146.111 E13.40319
G1 X60.398 Y128.758 E15.35185
G1 X58.714 Y127.133 E15.49959
G1 X57.672 Y125.038 E15.64733
G1 X57.381 Y123.058 E15.77373
G1 X57.381 Y109.788 E16.61166
G1 X57.509 Y108.467 E16.69548
G1 X66.218 Y63.876 E19.56440
G1 X67.050 Y61.689 E19.71214
G1 X68.517 Y59.964 E19.85514
G1 F1800.000 E18.85514
G92 E0
G1 X107.922 Y120.773 F7800.000
G1 E1.00000 F1800.000
G1 X107.922 Y138.125 E2.09575 F540.000
G1 X92.078 Y138.125 E3.09625
G1 X92.078 Y120.773 E4.19201
G1 X66.559 Y120.773 E5.80341
G1 X66.559 Y112.074 E6.35271
G1 X89.220 Y112.074 E7.78364
G1 X89.220 Y94.609 E8.88643
G1 X76.020 Y66.303 E10.85864
G1 X83.904 Y62.626 E11.40794
G1 X97.252 Y91.250 E13.40226
G1 X102.854 Y91.250 E13.75601
G1 X116.000 Y63.058 E15.72027
G1 X123.884 Y66.734 E16.26957
G1 X110.780 Y94.836 E18.22749
G1 X110.780 Y112.074 E19.31599
G1 X133.441 Y112.074 E20.74692
G1 X133.441 Y120.773 E21.29622
G1 X107.997 Y120.773 E22.90289
G1 X108.815 Y121.665 F7800.000
G1 X108.815 Y139.018 E23.99864 F540.000
G1 X91.185 Y139.018 E25.11188
G1 X91.185 Y121.665 E26.20764
G1 X65.666 Y121.665 E27.81904
G1 X65.666 Y111.181 E28.48108
G1 X88.327 Y111.181 E29.91201
G1 X88.327 Y94.807 E30.94593
G1 X74.834 Y65.871 E32.96201
G1 X84.336 Y61.440 E33.62406
G1 X97.820 Y90.357 E35.63883
G1 X102.285 Y90.357 E35.92076
G1 X115.568 Y61.871 E37.90548
G1 X125.070 Y66.302 E38.56752
G1 X111.673 Y95.033 E40.56931
G1 X111.673 Y111.181 E41.58895
G1 X134.334 Y111.181 E43.01987
G1 X134.334 Y121.665 E43.68192
G1 X108.890 Y121.665 E45.28859
G1 X109.708 Y122.558 F7800.000
G1 X109.708 Y139.911 E46.38434 F378.000
G1 X90.292 Y139.911 E47.61032
G1 X90.292 Y122.558 E48.70607
G1 X64.774 Y122.558 E50.31747
G1 X64.774 Y110.288 E51.09226
G1 X87.434 Y110.288 E52.52318
G1 X87.434 Y95.005 E53.48824
G1 X73.648 Y65.439 E55.54820
G1 X84.768 Y60.254 E56.32298
G1 X98.389 Y89.465 E58.35821
G1 X101.716 Y89.465 E58.56832
G1 X115.137 Y60.685 E60.57349
G1 X126.257 Y65.871 E61.34828
G1 X112.566 Y95.231 E63.39394
G1 X112.566 Y110.288 E64.34471
G1 X135.226 Y110.288 E65.77564
G1 X135.226 Y122.558 E66.55042
G1 X109.783 Y122.558 E68.15709
G1 X109.208 Y122.558 F7800.000
G1 X116.609 Y120.145 F7800.000
G1 X88.897 Y92.433 E70.63183 F1080.000
G1 X89.847 Y94.649 F7800.000
G1 X115.343 Y120.145 E72.90867 F1080.000
G1 X114.077 Y120.145 E72.98863
G1 X89.847 Y95.915 E75.15239
G1 X89.847 Y97.182 E75.23234
G1 X112.811 Y120.145 E77.28303
G1 X111.544 Y120.145 E77.36298
G1 X89.847 Y98.448 E79.30059
G1 X89.847 Y99.714 E79.38055
G1 X110.278 Y120.145 E81.20508
G1 X109.012 Y120.145 E81.28504
G1 X89.847 Y100.980 E82.99649
G1 X89.847 Y102.247 E83.07645
G1 X107.746 Y120.145 E84.67483
G1 X107.295 Y120.961 E84.73367
G1 X89.847 Y103.513 E86.29180
G1 X89.847 Y104.779 E86.37176
G1 X107.295 Y122.227 E87.92989
G1 X107.295 Y123.493 E88.00985
G1 X89.847 Y106.045 E89.56798
G1 X89.847 Y107.312 E89.64794
G1 X107.295 Y124.760 E91.20607
G1 X107.295 Y126.026 E91.28602
G1 X89.847 Y108.578 E92.84416
G1 X89.847 Y109.844 E92.92411
G1 X107.295 Y127.292 E94.48225
G1 X107.295 Y128.558 E94.56220
G1 X89.847 Y111.110 E96.12034
G1 X89.847 Y112.376 E96.20029
G1 X107.295 Y129.825 E97.75842
G1 X107.295 Y131.091 E97.83838
G1 X88.905 Y112.701 E99.48064
G1 X87.639 Y112.701 E99.56060
G1 X107.295 Y132.357 E101.31593
G1 X107.295 Y133.623 E101.39588
G1 X86.372 Y112.701 E103.26429
G1 X85.106 Y112.701 E103.34425
G1 X107.295 Y134.889 E105.32574
G1 X107.295 Y136.156 E105.40569
G1 X92.705 Y121.566 E106.70859
G1 X92.705 Y122.832 E106.78855
G1 X107.295 Y137.422 E108.09145
G1 X106.105 Y137.498 E108.16674
G1 X92.705 Y124.098 E109.36338
G1 X92.705 Y125.364 E109.44333
G1 X104.839 Y137.498 E110.52689
G1 X103.573 Y137.498 E110.60685
G1 X92.705 Y126.631 E111.57732
G1 X92.705 Y127.897 E111.65728
G1 X102.306 Y137.498 E112.51468
G1 X101.040 Y137.498 E112.59464
G1 X92.705 Y129.163 E113.33897
G1 X92.705 Y130.429 E113.41892
G1 X99.774 Y137.498 E114.05018
G1 X98.508 Y137.498 E114.13013
G1 X92.705 Y131.696 E114.64831
G1 X92.705 Y132.962 E114.72826
G1 X97.241 Y137.498 E115.13336
G1 X95.975 Y137.498 E115.21332
G1 X92.705 Y134.228 E115.50534
G1 X92.705 Y135.494 E115.58530
G1 X94.709 Y137.498 E115.76424
G1 X93.443 Y137.498 E115.84420
G1 X92.705 Y136.761 E115.91007
G1 X91.285 Y120.145 F7800.000
G1 X83.840 Y112.701 E116.57488 F1080.000
G1 X82.574 Y112.701 E116.65484
G1 X90.018 Y120.145 E117.31965
G1 X88.752 Y120.145 E117.39961
G1 X81.307 Y112.701 E118.06443
G1 X80.041 Y112.701 E118.14438
G1 X87.486 Y120.145 E118.80920
G1 X86.220 Y120.145 E118.88916
G1 X78.775 Y112.701 E119.55397
G1 X77.509 Y112.701 E119.63393
G1 X84.953 Y120.145 E120.29875
G1 X83.687 Y120.145 E120.37870
G1 X76.243 Y112.701 E121.04352
G1 X74.976 Y112.701 E121.12348
G1 X82.421 Y120.145 E121.78829
G1 X81.155 Y120.145 E121.86825
G1 X73.710 Y112.701 E122.53307
G1 X72.444 Y112.701 E122.61302
G1 X79.889 Y120.145 E123.27784
G1 X78.622 Y120.145 E123.35780
G1 X71.178 Y112.701 E124.02261
G1 X69.911 Y112.701 E124.10257
G1 X77.356 Y120.145 E124.76739
G1 X76.090 Y120.145 E124.84734
G1 X68.645 Y112.701 E125.51216
G1 X67.379 Y112.701 E125.59212
G1 X74.824 Y120.145 E126.25693
G1 X73.557 Y120.145 E126.33689
G1 X67.186 Y113.774 E126.90584
G1 X67.186 Y115.040 E126.98580
G1 X72.291 Y120.145 E127.44168
G1 X71.025 Y120.145 E127.52163
G1 X67.186 Y116.307 E127.86444
G1 X67.186 Y117.573 E127.94439
G1 X69.759 Y120.145 E128.17412
G1 X68.492 Y120.145 E128.25407
G1 X67.186 Y118.839 E128.37072
G1 X67.186 Y120.105 E128.45068
G1 X67.226 Y120.145 E128.45425
G1 F1800.000 E127.45425
G92 E0
G1 X87.791 Y90.060 F7800.000
G1 E1.00000 F1800.000
G1 X117.876 Y120.145 E3.68662 F1080.000
G1 X119.142 Y120.145 E3.76658
G1 X111.697 Y112.701 E4.43139
G1 X112.963 Y112.701 E4.51135
G1 X120.408 Y120.145 E5.17617
G1 X121.674 Y120.145 E5.25612
G1 X114.230 Y112.701 E5.92094
G1 X115.496 Y112.701 E6.00090
G1 X122.940 Y120.145 E6.66571
G1 X124.207 Y120.145 E6.74567
G1 X116.762 Y112.701 E7.41049
G1 X118.028 Y112.701 E7.49044
G1 X125.473 Y120.145 E8.15526
G1 X126.739 Y120.145 E8.23522
G1 X119.295 Y112.701 E8.90003
G1 X120.561 Y112.701 E8.97999
G1 X128.005 Y120.145 E9.64481
G1 X129.272 Y120.145 E9.72476
G1 X121.827 Y112.701 E10.38958
G1 X123.093 Y112.701 E10.46954
G1 X130.538 Y120.145 E11.13435
G1 X131.804 Y120.145 E11.21431
G1 X124.359 Y112.701 E11.87913
G1 X125.626 Y112.701 E11.95908
G1 X132.814 Y119.889 E12.60099
G1 X132.814 Y118.623 E12.68095
G1 X126.892 Y112.701 E13.20979
G1 X128.158 Y112.701 E13.28974
G1 X132.814 Y117.356 E13.70550
G1 X132.814 Y116.090 E13.78546
G1 X129.424 Y112.701 E14.08814
G1 X130.691 Y112.701 E14.16810
G1 X132.814 Y114.824 E14.35771
G1 X132.814 Y113.558 E14.43766
G1 X131.957 Y112.701 E14.51419
G1 X113.139 Y122.058 F7800.000
G1 X96.544 Y91.216 F7800.000
G1 X81.152 Y75.825 E15.88866 F1080.000
G1 X82.259 Y78.197 F7800.000
G1 X110.153 Y106.092 E18.37965 F1080.000
G1 X110.153 Y104.825 E18.45961
G1 X97.205 Y91.877 E19.61590
G1 X98.471 Y91.877 E19.69586
G1 X110.153 Y103.559 E20.73907
G1 X110.153 Y102.293 E20.81903
G1 X99.737 Y91.877 E21.74917
G1 X101.004 Y91.877 E21.82913
G1 X110.153 Y101.027 E22.64619
G1 X110.153 Y99.761 E22.72614
G1 X102.270 Y91.877 E23.43013
G1 X103.343 Y91.685 E23.49900
G1 X110.153 Y98.494 E24.10712
G1 X110.153 Y97.228 E24.18708
G1 X103.746 Y90.821 E24.75924
G1 X104.149 Y89.957 E24.81940
G1 X110.153 Y95.962 E25.35561
G1 X110.153 Y94.696 E25.43555
G1 X104.551 Y89.094 E25.93581
G1 X104.954 Y88.230 E25.99598
G1 X110.556 Y93.832 E26.49624
G1 X110.959 Y92.969 E26.55641
G1 X105.357 Y87.367 E27.05667
G1 X105.759 Y86.503 E27.11684
G1 X111.361 Y92.105 E27.61711
G1 X111.764 Y91.242 E27.67727
G1 X106.162 Y85.640 E28.17754
G1 X106.565 Y84.776 E28.23770
G1 X112.167 Y90.378 E28.73797
G1 X112.569 Y89.515 E28.79814
G1 X106.967 Y83.913 E29.29840
G1 X107.370 Y83.049 E29.35857
G1 X112.972 Y88.651 E29.85883
G1 X113.375 Y87.787 E29.91900
G1 X107.773 Y82.185 E30.41927
G1 X108.175 Y81.322 E30.47943
G1 X113.777 Y86.924 E30.97970
G1 X114.180 Y86.060 E31.03986
G1 X108.578 Y80.458 E31.54013
G1 X108.981 Y79.595 E31.60030
G1 X114.583 Y85.197 E32.10056
G1 X114.986 Y84.333 E32.16073
G1 X109.384 Y78.731 E32.66099
G1 X109.786 Y77.868 E32.72116
G1 X115.388 Y83.470 E33.22143
G1 X115.791 Y82.606 E33.28159
G1 X110.189 Y77.004 E33.78186
G1 X110.592 Y76.141 E33.84203
G1 X116.194 Y81.743 E34.34229
G1 X116.596 Y80.879 E34.40246
G1 X110.994 Y75.277 E34.90272
G1 X111.397 Y74.414 E34.96289
G1 X116.999 Y80.015 E35.46316
G1 X117.402 Y79.152 E35.52332
G1 X111.800 Y73.550 E36.02359
G1 X112.202 Y72.686 E36.08375
G1 X117.804 Y78.288 E36.58402
G1 X118.207 Y77.425 E36.64419
G1 X112.605 Y71.823 E37.14445
G1 X113.008 Y70.959 E37.20462
G1 X118.610 Y76.561 E37.70488
G1 X119.012 Y75.698 E37.76505
G1 X113.410 Y70.096 E38.26532
G1 X113.813 Y69.232 E38.32548
G1 X119.415 Y74.834 E38.82575
G1 X119.818 Y73.971 E38.88592
G1 X114.216 Y68.369 E39.38618
G1 X114.618 Y67.505 E39.44635
G1 X120.220 Y73.107 E39.94661
G1 X120.623 Y72.244 E40.00678
G1 X115.021 Y66.642 E40.50705
G1 X115.424 Y65.778 E40.56721
G1 X121.026 Y71.380 E41.06748
G1 X121.428 Y70.516 E41.12765
G1 X115.826 Y64.914 E41.62791
G1 X116.229 Y64.051 E41.68808
G1 X121.831 Y69.653 E42.18834
G1 X122.234 Y68.789 E42.24851
G1 X118.238 Y64.793 E42.60538
G1 X120.610 Y65.899 F7800.000
G1 X122.636 Y67.926 E42.78633 F1080.000
G1 X123.039 Y67.062 E42.84649
G1 X122.983 Y67.006 E42.85153
G1 X108.812 Y75.432 F7800.000
G1 X112.066 Y96.306 F7800.000
G1 X98.071 Y89.965 F7800.000
G1 X92.118 Y81.726 F7800.000
G1 X76.953 Y66.560 E44.20586 F1080.000
G1 X77.833 Y68.707 F7800.000
G1 X93.225 Y84.098 E45.58033 F1080.000
G1 X94.331 Y86.471 F7800.000
G1 X78.940 Y71.080 E46.95480 F1080.000
G1 X80.046 Y73.452 F7800.000
G1 X95.437 Y88.844 E48.32927 F1080.000
G1 X86.684 Y87.688 F7800.000
G1 X110.153 Y111.157 E50.42507 F1080.000
G1 X110.153 Y109.890 E50.50502
G1 X85.578 Y85.315 E52.69962
G1 X84.472 Y82.943 F7800.000
G1 X110.153 Y108.624 E54.99301 F1080.000
G1 X110.153 Y107.358 E55.07297
G1 X83.365 Y80.570 E57.46516
G1 X89.906 Y76.981 F7800.000
G1 X78.680 Y65.755 E58.46766 F1080.000
G1 X77.816 Y66.157 E58.52783
G1 X91.012 Y79.353 E59.70625
G1 X88.799 Y74.608 F7800.000
G1 X79.543 Y65.352 E60.53283 F1080.000
G1 X80.407 Y64.949 E60.59300
G1 X87.693 Y72.236 E61.24367
G1 X86.587 Y69.863 F7800.000
G1 X81.270 Y64.547 E61.71843 F1080.000
G1 X82.134 Y64.144 E61.77859
G1 X85.480 Y67.490 E62.07743
G1 X84.374 Y65.118 F7800.000
G1 X82.997 Y63.741 E62.20036 F1080.000
M104 S200 ; set temperature
G1 F1800.000 E61.20036
G92 E0
G1 Z0.900 F7800.000
G1 X108.958 Y121.808 F7800.000
G1 E1.00000 F1800.000
G1 X108.958 Y139.161 E1.49098 F1800.000
G1 X91.042 Y139.161 E1.99788
G1 X91.042 Y121.808 E2.48886
G1 X65.524 Y121.808 E3.21090
G1 X65.524 Y111.038 E3.51562
G1 X88.184 Y111.038 E4.15679
G1 X88.184 Y94.839 E4.61514
G1 X74.644 Y65.802 E5.52165
G1 X84.405 Y61.250 E5.82637
G1 X97.911 Y90.215 E6.73061
G1 X102.194 Y90.215 E6.85180
G1 X115.499 Y61.682 E7.74257
G1 X125.260 Y66.233 E8.04729
G1 X111.816 Y95.065 E8.94740
G1 X111.816 Y111.038 E9.39934
G1 X134.476 Y111.038 E10.04051
G1 X134.476 Y121.808 E10.34523
G1 X109.033 Y121.808 E11.06515
G1 X109.458 Y122.308 F7800.000
G1 X109.458 Y139.661 E11.55613 F1800.000
G1 X90.542 Y139.661 E12.09132
G1 X90.542 Y122.308 E12.58231
G1 X65.024 Y122.308 E13.30434
G1 X65.024 Y110.538 E13.63736
G1 X87.684 Y110.538 E14.27853
G1 X87.684 Y94.950 E14.71959
G1 X73.980 Y65.560 E15.63711
G1 X84.647 Y60.586 E15.97013
G1 X98.230 Y89.715 E16.87951
G1 X101.876 Y89.715 E16.98266
G1 X115.258 Y61.017 E17.87857
G1 X125.925 Y65.991 E18.21159
G1 X112.316 Y95.176 E19.12271
G1 X112.316 Y110.538 E19.55737
G1 X134.976 Y110.538 E20.19854
G1 X134.976 Y122.308 E20.53155
G1 X109.533 Y122.308 E21.25147
G1 X109.958 Y122.808 F7800.000
G1 X109.958 Y140.161 E21.74245 F1260.000
G1 X90.042 Y140.161 E22.30593
G1 X90.042 Y122.808 E22.79692
G1 X64.524 Y122.808 E23.51896
G1 X64.524 Y110.038 E23.88027
G1 X87.184 Y110.038 E24.52144
G1 X87.184 Y95.060 E24.94522
G1 X73.315 Y65.318 E25.87375
G1 X84.889 Y59.921 E26.23506
G1 X98.548 Y89.215 E27.14957
G1 X101.557 Y89.215 E27.23470
G1 X115.016 Y60.353 E28.13574
G1 X126.589 Y65.750 E28.49706
G1 X112.816 Y95.287 E29.41918
G1 X112.816 Y110.038 E29.83656
G1 X135.476 Y110.038 E30.47773
G1 X135.476 Y122.808 E30.83904
G1 X110.033 Y122.808 E31.55896
G1 X109.458 Y122.808 F7800.000
G1 X108.611 Y122.575 F7800.000
G1 X92.372 Y138.814 E32.23424 F3600.000
G1 X93.111 Y138.814 E32.25595
G1 X108.611 Y123.314 E32.90053
G1 X108.611 Y124.052 E32.92224
G1 X93.849 Y138.814 E33.53612
G1 X94.587 Y138.814 E33.55783
G1 X108.611 Y124.790 E34.14100
G1 X108.611 Y125.529 E34.16271
G1 X95.325 Y138.814 E34.71518
G1 X96.064 Y138.814 E34.73689
G1 X108.611 Y126.267 E35.25866
G1 X108.611 Y127.005 E35.28037
G1 X96.802 Y138.814 E35.77143
G1 X97.540 Y138.814 E35.79314
G1 X108.611 Y127.744 E36.25350
G1 X108.611 Y128.482 E36.27521
G1 X98.279 Y138.814 E36.70487
G1 X99.017 Y138.814 E36.72658
G1 X108.611 Y129.220 E37.12553
G1 X108.611 Y129.959 E37.14724
G1 X99.755 Y138.814 E37.51549
G1 X100.494 Y138.814 E37.53721
G1 X108.611 Y130.697 E37.87475
G1 X108.611 Y131.435 E37.89646
G1 X101.232 Y138.814 E38.20331
G1 X101.970 Y138.814 E38.22502
G1 X108.611 Y132.174 E38.50116
G1 X108.611 Y132.912 E38.52287
G1 X102.709 Y138.814 E38.76831
G1 X103.447 Y138.814 E38.79002
G1 X108.611 Y133.650 E39.00475
G1 X108.611 Y134.388 E39.02646
G1 X104.185 Y138.814 E39.21049
G1 X104.924 Y138.814 E39.23220
G1 X108.611 Y135.127 E39.38553
G1 X108.611 Y135.865 E39.40724
G1 X105.662 Y138.814 E39.52987
G1 X106.400 Y138.814 E39.55158
G1 X108.611 Y136.603 E39.64350
G1 X108.611 Y137.342 E39.66521
G1 X107.139 Y138.814 E39.72643
G1 X107.877 Y138.814 E39.74814
G1 X108.611 Y138.080 E39.77865
G1 X90.792 Y131.081 F7800.000
G1 X115.613 Y110.788 F7800.000
G1 X134.130 Y121.421 F7800.000
G1 X134.090 Y121.461 E39.78031 F3600.000
G1 X133.351 Y121.461 E39.80202
G1 X134.130 Y120.683 E39.83439
G1 X134.130 Y119.944 E39.85610
G1 X132.613 Y121.461 E39.91917
G1 X131.875 Y121.461 E39.94088
G1 X134.130 Y119.206 E40.03466
G1 X134.130 Y118.468 E40.05637
G1 X131.136 Y121.461 E40.18084
G1 X130.398 Y121.461 E40.20255
G1 X134.130 Y117.729 E40.35773
G1 X134.130 Y116.991 E40.37944
G1 X129.660 Y121.461 E40.56533
G1 X128.921 Y121.461 E40.58704
G1 X134.130 Y116.253 E40.80362
G1 X134.130 Y115.514 E40.82533
G1 X128.183 Y121.461 E41.07262
G1 X127.445 Y121.461 E41.09433
G1 X134.130 Y114.776 E41.37233
G1 X134.130 Y114.038 E41.39404
G1 X126.706 Y121.461 E41.70273
G1 X125.968 Y121.461 E41.72444
G1 X134.130 Y113.300 E42.06384
G1 X134.130 Y112.561 E42.08555
G1 X125.230 Y121.461 E42.45566
G1 X124.491 Y121.461 E42.47737
G1 X134.130 Y111.823 E42.87817
G1 X133.829 Y111.385 E42.89379
G1 X123.753 Y121.461 E43.31280
G1 X123.015 Y121.461 E43.33451
G1 X133.091 Y111.385 E43.75353
G1 X132.352 Y111.385 E43.77524
G1 X122.276 Y121.461 E44.19425
G1 X121.538 Y121.461 E44.21597
G1 X131.614 Y111.385 E44.63498
G1 X130.876 Y111.385 E44.65669
G1 X120.800 Y121.461 E45.07571
G1 X120.061 Y121.461 E45.09742
G1 X130.137 Y111.385 E45.51643
